EliottMontero/robotique_fac/td7/skeleton/data.csv
t,target_q0,target_q1,target_q2,target_q3,measured_q0,measured_q1,measured_q2,measured_q3,target_o0,target_o1,target_o2,target_o3,measured_o0,measured_o1,measured_o2,measured_o3
0.010000,0.025003,-0.867415,1.684752,-2.385833,0.002500,-0.086742,0.182249,-0.245086,0.000000,0.800000,0.800000,-1.000000,0.017011,1.195318,0.982815,-0.149021
0.020000,0.017502,-0.868248,1.686081,-2.384723,0.004001,-0.164892,0.333925,-0.459597,0.006000,0.800000,0.799940,-1.000000,0.015266,1.183342,0.953926,-0.286493
0.030000,0.010003,-0.868200,1.685125,-2.384525,0.004601,-0.235223,0.467963,-0.651772,0.011998,0.800000,0.799763,-1.000000,0.014634,1.166426,0.927900,-0.406876
0.040000,0.002507,-0.868843,1.684952,-2.383303,0.004391,-0.298585,0.589056,-0.824864,0.017995,0.800000,0.799471,-1.000000,0.014967,1.146351,0.905807,-0.509319
0.050000,-0.004984,-0.868980,1.683247,-2.382528,0.003453,-0.355624,0.698246,-0.980659,0.023987,0.800000,0.799066,-1.000000,0.016117,1.124507,0.887210,-0.595621
0.060000,-0.012466,-0.870501,1.683694,-2.379874,0.001861,-0.407112,0.796697,-1.120614,0.029975,0.800000,0.798550,-1.000000,0.017949,1.101933,0.871627,-0.667636
0.070000,-0.019938,-0.871383,1.682381,-2.377824,-0.000319,-0.453539,0.885223,-1.246358,0.035957,0.800000,0.797926,-1.000000,0.020344,1.079364,0.858575,-0.727502
0.080000,-0.027398,-0.871700,1.679471,-2.376282,-0.003027,-0.495355,0.964626,-1.359365,0.041931,0.800000,0.797197,-1.000000,0.023200,1.057312,0.847641,-0.777132
0.090000,-0.034843,-0.873206,1.678366,-2.373096,-0.006208,-0.533140,1.035988,-1.460748,0.047898,0.800000,0.796365,-1.000000,0.026433,1.036132,0.838507,-0.817986
0.100000,-0.042270,-0.875184,1.677692,-2.369143,-0.009815,-0.567345,1.100151,-1.551594,0.053854,0.800000,0.795432,-1.000000,0.029973,1.016049,0.830873,-0.851473
0.110000,-0.049678,-0.876152,1.674610,-2.366230,-0.013801,-0.598225,1.157593,-1.633062,0.059800,0.800000,0.794400,-1.000000,0.033765,0.997183,0.824448,-0.878968
0.120000,-0.057064,-0.877619,1.672044,-2.362508,-0.018127,-0.626165,1.209034,-1.706011,0.065734,0.800000,0.793272,-1.000000,0.037763,0.979597,0.819021,-0.901465
0.130000,-0.064427,-0.879265,1.669390,-2.358366,-0.022757,-0.651475,1.255066,-1.771250,0.071654,0.800000,0.792051,-1.000000,0.041931,0.963304,0.814406,-0.919835
0.140000,-0.071763,-0.881067,1.666617,-2.353829,-0.027658,-0.674434,1.296217,-1.829512,0.077561,0.800000,0.790739,-1.000000,0.046242,0.948283,0.810447,-0.934812
0.150000,-0.079070,-0.883054,1.663797,-2.348858,-0.032799,-0.695296,1.332972,-1.881450,0.083451,0.800000,0.789338,-1.000000,0.050672,0.934489,0.807014,-0.947003
0.160000,-0.086348,-0.885328,1.661131,-2.343329,-0.038154,-0.714299,1.365784,-1.927642,0.089325,0.800000,0.787850,-1.000000,0.055204,0.921865,0.804003,-0.956907
0.170000,-0.093592,-0.887672,1.658226,-2.337500,-0.043698,-0.731637,1.395025,-1.968631,0.095181,0.800000,0.786278,-1.000000,0.059824,0.910342,0.801321,-0.964947
0.180000,-0.100801,-0.889023,1.653104,-2.332640,-0.049408,-0.747375,1.420830,-2.005035,0.101017,0.800000,0.784625,-1.000000,0.064520,0.899844,0.798888,-0.971524
0.190000,-0.107974,-0.891671,1.650077,-2.326004,-0.055265,-0.761805,1.443752,-2.037135,0.106834,0.800000,0.782893,-1.000000,0.069283,0.890302,0.796654,-0.976846
0.200000,-0.115108,-0.894229,1.646556,-2.319249,-0.061249,-0.775047,1.464030,-2.065350,0.112628,0.800000,0.781084,-1.000000,0.074105,0.881643,0.794569,-0.981158
0.210000,-0.122200,-0.896075,1.641406,-2.313110,-0.067344,-0.787150,1.481765,-2.090129,0.118400,0.800000,0.779200,-1.000000,0.078979,0.873793,0.792588,-0.984677
0.220000,-0.129250,-0.898993,1.637948,-2.305469,-0.073535,-0.798334,1.497381,-2.111666,0.124148,0.800000,0.777244,-1.000000,0.083901,0.866689,0.790685,-0.987516
0.230000,-0.136255,-0.900710,1.632003,-2.299008,-0.079807,-0.808572,1.510841,-2.130402,0.129870,0.800000,0.775219,-1.000000,0.088865,0.860263,0.788827,-0.989841
0.240000,-0.143212,-0.902740,1.626379,-2.291938,-0.086147,-0.817989,1.522392,-2.146559,0.135567,0.800000,0.773127,-1.000000,0.093866,0.854456,0.786995,-0.991737
0.250000,-0.150122,-0.905751,1.622303,-2.283479,-0.092545,-0.826765,1.532380,-2.160254,0.141235,0.800000,0.770970,-1.000000,0.098901,0.849215,0.785175,-0.993261
0.260000,-0.156980,-0.907523,1.615741,-2.276223,-0.098988,-0.834841,1.540714,-2.171854,0.146875,0.800000,0.768750,-1.000000,0.103967,0.844487,0.783350,-0.994512
0.270000,-0.163786,-0.909633,1.609584,-2.268327,-0.105468,-0.842320,1.547599,-2.181503,0.152485,0.800000,0.766470,-1.000000,0.109059,0.840223,0.781511,-0.995531
0.280000,-0.170539,-0.912808,1.605141,-2.258960,-0.111975,-0.849369,1.553351,-2.189251,0.158063,0.800000,0.764133,-1.000000,0.114174,0.836383,0.779650,-0.996345
0.290000,-0.177235,-0.914748,1.598294,-2.250769,-0.118501,-0.855907,1.557844,-2.195405,0.163610,0.800000,0.761741,-1.000000,0.119308,0.832925,0.777757,-0.997012
0.300000,-0.183873,-0.916678,1.591260,-2.242340,-0.125038,-0.861984,1.561184,-2.200100,0.169122,0.800000,0.759296,-1.000000,0.124460,0.829812,0.775829,-0.997558
0.310000,-0.190453,-0.918591,1.584042,-2.233681,-0.131580,-0.867646,1.563470,-2.203456,0.174600,0.800000,0.756800,-1.000000,0.129625,0.827011,0.773862,-0.998006
0.320000,-0.196972,-0.921622,1.578658,-2.223512,-0.138119,-0.873045,1.564988,-2.205460,0.180042,0.800000,0.754256,-1.000000,0.134800,0.824493,0.771852,-0.998360
0.330000,-0.203428,-0.923317,1.570779,-2.214609,-0.144650,-0.878072,1.565565,-2.206378,0.185446,0.800000,0.751667,-1.000000,0.139983,0.822229,0.769797,-0.998653
0.340000,-0.209821,-0.925079,1.562907,-2.205381,-0.151167,-0.882773,1.565297,-2.206281,0.190813,0.800000,0.749035,-1.000000,0.145170,0.820195,0.767697,-0.998894
0.350000,-0.216148,-0.926820,1.554894,-2.195931,-0.157665,-0.887177,1.564254,-2.205249,0.196139,0.800000,0.746362,-1.000000,0.150359,0.818368,0.765549,-0.999092
0.360000,-0.222409,-0.928495,1.546675,-2.186313,-0.164139,-0.891310,1.562496,-2.203354,0.201425,0.800000,0.743650,-1.000000,0.155547,0.816728,0.763355,-0.999254
0.370000,-0.228601,-0.930095,1.538248,-2.176535,-0.170586,-0.895190,1.560071,-2.200670,0.206669,0.800000,0.740902,-1.000000,0.160730,0.815256,0.761114,-0.999387
0.380000,-0.234724,-0.932823,1.531694,-2.165292,-0.176999,-0.898953,1.557232,-2.197134,0.211869,0.800000,0.738121,-1.000000,0.165907,0.813934,0.758826,-0.999490
0.390000,-0.240776,-0.934167,1.522693,-2.155330,-0.183377,-0.902475,1.553776,-2.192955,0.217026,0.800000,0.735309,-1.000000,0.171074,0.812749,0.756493,-0.999575
0.400000,-0.246756,-0.935426,1.513500,-2.145228,-0.189715,-0.905770,1.549747,-2.188185,0.222136,0.800000,0.732468,-1.000000,0.176229,0.811686,0.754115,-0.999647
0.410000,-0.252663,-0.936594,1.504117,-2.134996,-0.196010,-0.908852,1.545182,-2.182868,0.227200,0.800000,0.729600,-1.000000,0.181369,0.810733,0.751693,-0.999706
0.420000,-0.258495,-0.937674,1.494561,-2.124635,-0.202258,-0.911734,1.540118,-2.177047,0.232216,0.800000,0.726708,-1.000000,0.186492,0.809879,0.749230,-0.999755
0.430000,-0.264251,-0.938692,1.484885,-2.114122,-0.208458,-0.914430,1.534592,-2.170757,0.237182,0.800000,0.723795,-1.000000,0.191595,0.809113,0.746726,-0.999796
0.440000,-0.269931,-0.939595,1.475008,-2.103517,-0.214605,-0.916947,1.528632,-2.164035,0.242099,0.800000,0.720863,-1.000000,0.196676,0.808428,0.744184,-0.999830
0.450000,-0.275533,-0.940380,1.464936,-2.092830,-0.220698,-0.919290,1.522260,-2.156918,0.246963,0.800000,0.717914,-1.000000,0.201732,0.807814,0.741604,-0.999858
0.460000,-0.281056,-0.941044,1.454673,-2.082068,-0.226734,-0.921465,1.515498,-2.149435,0.251775,0.800000,0.714950,-1.000000,0.206762,0.807264,0.738989,-0.999882
0.470000,-0.286499,-0.941585,1.444226,-2.071237,-0.232710,-0.923477,1.508368,-2.141619,0.256533,0.800000,0.711974,-1.000000,0.211762,0.806771,0.736341,-0.999901
0.480000,-0.291861,-0.942002,1.433601,-2.060347,-0.238625,-0.925330,1.500890,-2.133494,0.261235,0.800000,0.708989,-1.000000,0.216731,0.806330,0.733662,-0.999917
0.490000,-0.297141,-0.942294,1.422805,-2.049404,-0.244477,-0.927026,1.493079,-2.125087,0.265882,0.800000,0.705997,-1.000000,0.221667,0.805935,0.730954,-0.999931
0.500000,-0.302338,-0.942459,1.411845,-2.038415,-0.250263,-0.928570,1.484954,-2.116422,0.270470,0.800000,0.703000,-1.000000,0.226567,0.805581,0.728218,-0.999942
0.510000,-0.307452,-0.942497,1.400728,-2.027389,-0.255982,-0.929962,1.476529,-2.107521,0.275000,0.800000,0.700000,-1.000000,0.231430,0.805264,0.725458,-0.999952
0.520000,-0.312481,-0.942407,1.389461,-2.016334,-0.261632,-0.931207,1.467819,-2.098405,0.279470,0.800000,0.697000,-1.000000,0.236254,0.804980,0.722674,-0.999959
0.530000,-0.317424,-0.942189,1.378051,-2.005256,-0.267211,-0.932305,1.458840,-2.089094,0.283878,0.800000,0.694003,-1.000000,0.241035,0.804724,0.719870,-0.999966
0.540000,-0.322282,-0.941844,1.366508,-1.994164,-0.272718,-0.933259,1.449604,-2.079604,0.288225,0.800000,0.691011,-1.000000,0.245774,0.804495,0.717048,-0.999972
0.550000,-0.327052,-0.941371,1.354837,-1.983066,-0.278151,-0.934070,1.440125,-2.069953,0.292507,0.800000,0.688026,-1.000000,0.250467,0.804289,0.714210,-0.999976
0.560000,-0.331735,-0.940773,1.343050,-1.971970,-0.283510,-0.934740,1.430415,-2.060157,0.296725,0.800000,0.685050,-1.000000,0.255114,0.804103,0.711358,-0.999980
0.570000,-0.336329,-0.940050,1.331154,-1.960884,-0.288792,-0.935271,1.420486,-2.050232,0.300877,0.800000,0.682086,-1.000000,0.259711,0.803936,0.708495,-0.999983
0.580000,-0.340834,-0.939203,1.319158,-1.949815,-0.293996,-0.935665,1.410351,-2.040194,0.304961,0.800000,0.679137,-1.000000,0.264258,0.803785,0.705623,-0.999986
0.590000,-0.345249,-0.938234,1.307073,-1.938773,-0.299121,-0.935922,1.400020,-2.030055,0.308978,0.800000,0.676205,-1.000000,0.268753,0.803648,0.702744,-0.999988
0.600000,-0.349574,-0.937147,1.294908,-1.927765,-0.304167,-0.936044,1.389505,-2.019829,0.312924,0.800000,0.673292,-1.000000,0.273194,0.803523,0.699860,-0.999990
0.610000,-0.353807,-0.935942,1.282673,-1.916799,-0.309131,-0.936034,1.378820,-2.009529,0.316800,0.800000,0.670400,-1.000000,0.277580,0.803410,0.696975,-0.999992
0.620000,-0.357949,-0.934624,1.270382,-1.905884,-0.314013,-0.935893,1.367973,-1.999168,0.320604,0.800000,0.667532,-1.000000,0.281908,0.803306,0.694091,-0.999993
0.630000,-0.361998,-0.933196,1.258043,-1.895029,-0.318811,-0.935623,1.356977,-1.988757,0.324334,0.800000,0.664691,-1.000000,0.286177,0.803211,0.691209,-0.999994
0.640000,-0.365954,-0.931660,1.245670,-1.884242,-0.323525,-0.935227,1.345843,-1.978309,0.327991,0.800000,0.661879,-1.000000,0.290387,0.803122,0.688333,-0.999995
0.650000,-0.369816,-0.930023,1.233276,-1.873532,-0.328154,-0.934706,1.334583,-1.967835,0.331571,0.800000,0.659098,-1.000000,0.294534,0.803041,0.685465,-0.999996
0.660000,-0.373584,-0.928287,1.220872,-1.862908,-0.332697,-0.934064,1.323209,-1.957345,0.335075,0.800000,0.656350,-1.000000,0.298618,0.802965,0.682607,-0.999997
0.670000,-0.377256,-0.926457,1.208473,-1.852378,-0.337153,-0.933304,1.311732,-1.946851,0.338501,0.800000,0.653638,-1.000000,0.302637,0.802893,0.679762,-0.999997
0.680000,-0.380834,-0.924540,1.196094,-1.841953,-0.341521,-0.932427,1.300165,-1.936365,0.341847,0.800000,0.650965,-1.000000,0.306590,0.802826,0.676931,-0.999998
0.690000,-0.384315,-0.922540,1.183748,-1.831641,-0.345801,-0.931439,1.288520,-1.925896,0.345114,0.800000,0.648333,-1.000000,0.310475,0.802761,0.674119,-0.999998
0.700000,-0.387700,-0.920463,1.171451,-1.821452,-0.349991,-0.930341,1.276809,-1.915456,0.348298,0.800000,0.645744,-1.000000,0.314290,0.802699,0.671326,-0.999998
0.710000,-0.390987,-0.918315,1.159219,-1.811397,-0.354090,-0.929138,1.265047,-1.905053,0.351400,0.800000,0.643200,-1.000000,0.318035,0.802640,0.668557,-0.999999
0.720000,-0.394177,-0.916104,1.147069,-1.801485,-0.358099,-0.927835,1.253245,-1.894700,0.354418,0.800000,0.640704,-1.000000,0.321708,0.802583,0.665812,-0.999999
0.730000,-0.397268,-0.913835,1.135018,-1.791726,-0.362016,-0.926435,1.241419,-1.884406,0.357350,0.800000,0.638259,-1.000000,0.325308,0.802527,0.663095,-0.999999
0.740000,-0.400260,-0.911518,1.123083,-1.782132,-0.365840,-0.924943,1.229581,-1.874183,0.360197,0.800000,0.635867,-1.000000,0.328832,0.802471,0.660408,-0.999999
0.750000,-0.403153,-0.909158,1.111284,-1.772714,-0.369572,-0.923365,1.217748,-1.864039,0.362955,0.800000,0.633530,-1.000000,0.332281,0.802417,0.657754,-0.999999
0.760000,-0.405946,-0.906765,1.099639,-1.763481,-0.373209,-0.921705,1.205934,-1.853986,0.365625,0.800000,0.631250,-1.000000,0.335651,0.802363,0.655135,-0.999999
0.770000,-0.408638,-0.904346,1.088169,-1.754447,-0.376752,-0.919969,1.194153,-1.844036,0.368205,0.800000,0.629030,-1.000000,0.338943,0.802309,0.652554,-1.000000
0.780000,-0.411229,-0.901911,1.076894,-1.745623,-0.380200,-0.918163,1.182423,-1.834199,0.370693,0.800000,0.626873,-1.000000,0.342154,0.802255,0.650012,-1.000000
0.790000,-0.413718,-0.899468,1.065834,-1.737021,-0.383551,-0.916294,1.170759,-1.824485,0.373090,0.800000,0.624781,-1.000000,0.345284,0.802200,0.647513,-1.000000
0.800000,-0.416104,-0.897028,1.055012,-1.728654,-0.386807,-0.914367,1.159181,-1.814906,0.375392,0.800000,0.622756,-1.000000,0.348331,0.802145,0.645060,-1.000000
0.810000,-0.418388,-0.894599,1.044451,-1.720534,-0.389965,-0.912390,1.147704,-1.805472,0.377600,0.800000,0.620800,-1.000000,0.351293,0.802090,0.642654,-1.000000
0.820000,-0.420567,-0.892192,1.034173,-1.712674,-0.393025,-0.910370,1.136346,-1.796196,0.379712,0.800000,0.618916,-1.000000,0.354170,0.802033,0.640298,-1.000000
0.830000,-0.422643,-0.889817,1.024201,-1.705089,-0.395987,-0.908315,1.125127,-1.787090,0.381726,0.800000,0.617107,-1.000000,0.356960,0.801976,0.637995,-1.000000
0.840000,-0.424613,-0.887484,1.014560,-1.697791,-0.398849,-0.906232,1.114065,-1.778165,0.383643,0.800000,0.615375,-1.000000,0.359662,0.801918,0.635746,-1.000000
0.850000,-0.426477,-0.885203,1.005274,-1.690794,-0.401612,-0.904129,1.103181,-1.769431,0.385459,0.800000,0.613722,-1.000000,0.362274,0.801859,0.633556,-1.000000
0.860000,-0.428236,-0.882987,0.996368,-1.684113,-0.404275,-0.902015,1.092495,-1.760903,0.387175,0.800000,0.612150,-1.000000,0.364796,0.801799,0.631426,-1.000000
0.870000,-0.429886,-0.880845,0.987867,-1.677761,-0.406836,-0.899898,1.082027,-1.752593,0.388789,0.800000,0.610662,-1.000000,0.367226,0.801738,0.629358,-1.000000
0.880000,-0.431430,-0.878787,0.979796,-1.671754,-0.409295,-0.897787,1.071800,-1.744513,0.390299,0.800000,0.609261,-1.000000,0.369563,0.801676,0.627356,-1.000000
0.890000,-0.432864,-0.876826,0.972180,-1.666106,-0.411652,-0.895691,1.061833,-1.736676,0.391706,0.800000,0.607949,-1.000000,0.371805,0.801613,0.625421,-1.000000
0.900000,-0.434189,-0.874972,0.965045,-1.660831,-0.413906,-0.893619,1.052149,-1.729095,0.393006,0.800000,0.606728,-1.000000,0.373951,0.801550,0.623557,-1.000000
0.910000,-0.435404,-0.873235,0.958415,-1.655944,-0.416056,-0.891580,1.042771,-1.721784,0.394200,0.800000,0.605600,-1.000000,0.376001,0.801485,0.621765,-1.000000
0.920000,-0.436507,-0.871624,0.952315,-1.651459,-0.418101,-0.889585,1.033721,-1.714755,0.395286,0.800000,0.604568,-1.000000,0.377953,0.801419,0.620048,-1.000000
0.930000,-0.437499,-0.870151,0.946770,-1.647391,-0.420041,-0.887641,1.025021,-1.708022,0.396262,0.800000,0.603635,-1.000000,0.379805,0.801353,0.618409,-1.000000
0.940000,-0.438378,-0.868854,0.941855,-1.643758,-0.421874,-0.885763,1.016700,-1.701599,0.397129,0.800000,0.602803,-1.000000,0.381557,0.801286,0.616850,-1.000000
0.950000,-0.439142,-0.867672,0.937470,-1.640560,-0.423601,-0.883954,1.008771,-1.695499,0.397883,0.800000,0.602074,-1.000000,0.383208,0.801219,0.615373,-1.000000
0.960000,-0.439792,-0.866662,0.933720,-1.637826,-0.425220,-0.882225,1.001261,-1.689736,0.398525,0.800000,0.601450,-1.000000,0.384755,0.801151,0.613980,-1.000000
0.970000,-0.440327,-0.865823,0.930613,-1.635563,-0.426731,-0.880584,0.994190,-1.684323,0.399053,0.800000,0.600934,-1.000000,0.386199,0.801084,0.612675,-1.000000
0.980000,-0.440744,-0.865161,0.928168,-1.633783,-0.428132,-0.879042,0.987582,-1.679273,0.399465,0.800000,0.600529,-1.000000,0.387538,0.801016,0.611460,-1.000000
0.990000,-0.441044,-0.864682,0.926401,-1.632499,-0.429423,-0.877606,0.981457,-1.674600,0.399762,0.800000,0.600237,-1.000000,0.388771,0.800949,0.610336,-1.000000
1.000000,-0.441225,-0.864391,0.925329,-1.631722,-0.430604,-0.876285,0.975838,-1.670317,0.399940,0.800000,0.600060,-1.000000,0.389896,0.800883,0.609307,-1.000000
1.010000,-0.441285,-0.864292,0.924965,-1.631462,-0.431672,-0.875085,0.970743,-1.666437,0.400000,0.800000,0.600000,-1.000000,0.390914,0.800818,0.608374,-1.000000
1.020000,-0.441270,-0.864316,0.925005,-1.631481,-0.432632,-0.874008,0.966162,-1.662946,0.399985,0.800000,0.600000,-1.000000,0.391826,0.800755,0.607535,-1.000000
1.030000,-0.441225,-0.864397,0.925138,-1.631537,-0.433491,-0.873047,0.962052,-1.659810,0.399940,0.800000,0.600000,-1.000000,0.392642,0.800694,0.606779,-1.000000
1.040000,-0.441149,-0.864533,0.925362,-1.631628,-0.434257,-0.872196,0.958376,-1.656997,0.399866,0.800000,0.600000,-1.000000,0.393367,0.800635,0.606099,-1.000000
1.050000,-0.441044,-0.864724,0.925678,-1.631755,-0.434935,-0.871449,0.955098,-1.654478,0.399762,0.800000,0.600000,-1.000000,0.394009,0.800580,0.605487,-1.000000
1.060000,-0.440909,-0.864970,0.926084,-1.631918,-0.435533,-0.870801,0.952189,-1.652227,0.399628,0.800000,0.600000,-1.000000,0.394573,0.800528,0.604936,-1.000000
1.070000,-0.440744,-0.865270,0.926579,-1.632116,-0.436054,-0.870248,0.949620,-1.650221,0.399465,0.800000,0.600000,-1.000000,0.395063,0.800479,0.604440,-1.000000
1.080000,-0.440550,-0.865625,0.927164,-1.632349,-0.436504,-0.869785,0.947366,-1.648439,0.399274,0.800000,0.600000,-1.000000,0.395485,0.800434,0.603994,-1.000000
1.090000,-0.440327,-0.866033,0.927837,-1.632616,-0.436886,-0.869410,0.945405,-1.646863,0.399053,0.800000,0.600000,-1.000000,0.395842,0.800392,0.603592,-1.000000
1.100000,-0.440074,-0.866494,0.928597,-1.632917,-0.437205,-0.869118,0.943716,-1.645473,0.398803,0.800000,0.600000,-1.000000,0.396138,0.800354,0.603230,-1.000000
1.110000,-0.439792,-0.867008,0.929444,-1.633253,-0.437464,-0.868907,0.942280,-1.644257,0.398525,0.800000,0.600000,-1.000000,0.396377,0.800318,0.602905,-1.000000
1.120000,-0.439482,-0.867574,0.930377,-1.633621,-0.437665,-0.868774,0.941082,-1.643199,0.398218,0.800000,0.600000,-1.000000,0.396560,0.800286,0.602612,-1.000000
1.130000,-0.439142,-0.868191,0.931395,-1.634023,-0.437813,-0.868716,0.940105,-1.642287,0.397883,0.800000,0.600000,-1.000000,0.396692,0.800256,0.602348,-1.000000
1.140000,-0.438774,-0.868860,0.932496,-1.634458,-0.437909,-0.868730,0.939335,-1.641509,0.397520,0.800000,0.600000,-1.000000,0.396774,0.800229,0.602111,-1.000000
1.150000,-0.438377,-0.869584,0.933688,-1.634954,-0.437956,-0.868816,0.938762,-1.640859,0.397129,0.800000,0.600000,-1.000000,0.396808,0.800203,0.601897,-1.000000
1.160000,-0.437952,-0.870343,0.934939,-1.635450,-0.437956,-0.868968,0.938371,-1.640324,0.396709,0.800000,0.600000,-1.000000,0.396797,0.800181,0.601705,-1.000000
1.170000,-0.437499,-0.871155,0.936276,-1.635979,-0.437910,-0.869187,0.938153,-1.639895,0.396262,0.800000,0.600000,-1.000000,0.396743,0.800160,0.601532,-1.000000
1.180000,-0.437018,-0.872019,0.937698,-1.636542,-0.437821,-0.869470,0.938099,-1.639565,0.395788,0.800000,0.600000,-1.000000,0.396646,0.800142,0.601376,-1.000000
1.190000,-0.436508,-0.872934,0.939204,-1.637136,-0.437690,-0.869817,0.938201,-1.639327,0.395286,0.800000,0.600000,-1.000000,0.396509,0.800125,0.601236,-1.000000
1.200000,-0.435971,-0.873898,0.940791,-1.637762,-0.437518,-0.870225,0.938452,-1.639176,0.394756,0.800000,0.600000,-1.000000,0.396333,0.800110,0.601110,-1.000000
1.210000,-0.435406,-0.874911,0.942458,-1.638419,-0.437307,-0.870693,0.938844,-1.639106,0.394200,0.800000,0.600000,-1.000000,0.396118,0.800097,0.600997,-1.000000
1.220000,-0.434813,-0.875973,0.944203,-1.639106,-0.437057,-0.871221,0.939371,-1.639112,0.393617,0.800000,0.600000,-1.000000,0.395867,0.800085,0.600894,-1.000000
1.230000,-0.434193,-0.877082,0.946026,-1.639823,-0.436771,-0.871807,0.940028,-1.639188,0.393006,0.800000,0.600000,-1.000000,0.395580,0.800074,0.600803,-1.000000
1.240000,-0.433540,-0.878237,0.947908,-1.640510,-0.436448,-0.872450,0.940808,-1.639326,0.392369,0.800000,0.600000,-1.000000,0.395258,0.800065,0.600719,-1.000000
1.250000,-0.432864,-0.879432,0.949867,-1.641274,-0.436089,-0.873149,0.941706,-1.639526,0.391706,0.800000,0.600000,-1.000000,0.394901,0.800057,0.600644,-1.000000
1.260000,-0.432160,-0.880671,0.951897,-1.642066,-0.435697,-0.873901,0.942717,-1.639785,0.391016,0.800000,0.600000,-1.000000,0.394512,0.800051,0.600577,-1.000000
1.270000,-0.431430,-0.881953,0.953997,-1.642884,-0.435270,-0.874706,0.943837,-1.640101,0.390299,0.800000,0.600000,-1.000000,0.394089,0.800045,0.600516,-1.000000
1.280000,-0.430672,-0.883278,0.956165,-1.643727,-0.434810,-0.875563,0.945061,-1.640469,0.389557,0.800000,0.600000,-1.000000,0.393635,0.800040,0.600461,-1.000000
1.290000,-0.429886,-0.884645,0.958401,-1.644597,-0.434318,-0.876471,0.946387,-1.640887,0.388789,0.800000,0.600000,-1.000000,0.393149,0.800036,0.600412,-1.000000
1.300000,-0.429074,-0.886053,0.960703,-1.645490,-0.433793,-0.877429,0.947811,-1.641352,0.387995,0.800000,0.600000,-1.000000,0.392633,0.800032,0.600367,-1.000000
1.310000,-0.428236,-0.887501,0.963070,-1.646408,-0.433238,-0.878437,0.949329,-1.641863,0.387175,0.800000,0.600000,-1.000000,0.392086,0.800030,0.600327,-1.000000
1.320000,-0.427370,-0.888990,0.965500,-1.647350,-0.432651,-0.879492,0.950938,-1.642417,0.386330,0.800000,0.600000,-1.000000,0.391509,0.800028,0.600291,-1.000000
1.330000,-0.426477,-0.890517,0.967992,-1.648315,-0.432033,-0.880594,0.952636,-1.643012,0.385459,0.800000,0.600000,-1.000000,0.390903,0.800026,0.600258,-1.000000
1.340000,-0.425558,-0.892084,0.970546,-1.649302,-0.431386,-0.881743,0.954419,-1.643646,0.384563,0.800000,0.600000,-1.000000,0.390268,0.800025,0.600229,-1.000000
1.350000,-0.424613,-0.893688,0.973159,-1.650311,-0.430709,-0.882938,0.956286,-1.644317,0.383643,0.800000,0.600000,-1.000000,0.389605,0.800024,0.600202,-1.000000
1.360000,-0.423641,-0.895329,0.975830,-1.651341,-0.430002,-0.884177,0.958233,-1.645025,0.382697,0.800000,0.600000,-1.000000,0.388913,0.800024,0.600178,-1.000000
1.370000,-0.422643,-0.897006,0.978559,-1.652392,-0.429266,-0.885460,0.960258,-1.645766,0.381726,0.800000,0.600000,-1.000000,0.388193,0.800025,0.600157,-1.000000
1.380000,-0.421618,-0.898719,0.981343,-1.653463,-0.428501,-0.886786,0.962359,-1.646541,0.380731,0.800000,0.600000,-1.000000,0.387446,0.800025,0.600137,-1.000000
1.390000,-0.420567,-0.900467,0.984182,-1.654554,-0.427708,-0.888154,0.964534,-1.647347,0.379712,0.800000,0.600000,-1.000000,0.386672,0.800026,0.600119,-1.000000
1.400000,-0.419491,-0.902249,0.987073,-1.655663,-0.426886,-0.889563,0.966781,-1.648184,0.378668,0.800000,0.600000,-1.000000,0.385870,0.800027,0.600103,-1.000000
1.410000,-0.418388,-0.904064,0.990017,-1.656791,-0.426036,-0.891013,0.969098,-1.649049,0.377600,0.800000,0.600000,-1.000000,0.385042,0.800029,0.600089,-1.000000
1.420000,-0.417259,-0.905912,0.993011,-1.657937,-0.425159,-0.892503,0.971482,-1.649942,0.376508,0.800000,0.600000,-1.000000,0.384188,0.800031,0.600076,-1.000000
1.430000,-0.416104,-0.907792,0.996054,-1.659100,-0.424253,-0.894032,0.973933,-1.650863,0.375392,0.800000,0.600000,-1.000000,0.383307,0.800033,0.600064,-1.000000
1.440000,-0.414924,-0.909704,0.999145,-1.660279,-0.423320,-0.895599,0.976448,-1.651809,0.374253,0.800000,0.600000,-1.000000,0.382401,0.800035,0.600053,-1.000000
1.450000,-0.413718,-0.911646,1.002282,-1.661474,-0.422360,-0.897204,0.979025,-1.652780,0.373090,0.800000,0.600000,-1.000000,0.381469,0.800038,0.600043,-1.000000
1.460000,-0.412486,-0.913617,1.005465,-1.662685,-0.421373,-0.898845,0.981662,-1.653775,0.371903,0.800000,0.600000,-1.000000,0.380511,0.800040,0.600034,-1.000000
1.470000,-0.411229,-0.915618,1.008691,-1.663910,-0.420358,-0.900523,0.984359,-1.654793,0.370693,0.800000,0.600000,-1.000000,0.379528,0.800043,0.600026,-1.000000
1.480000,-0.409946,-0.917647,1.011960,-1.665150,-0.419317,-0.902235,0.987113,-1.655833,0.369461,0.800000,0.600000,-1.000000,0.378520,0.800046,0.600019,-1.000000
1.490000,-0.408638,-0.919703,1.015270,-1.666403,-0.418249,-0.903982,0.989923,-1.656894,0.368205,0.800000,0.600000,-1.000000,0.377488,0.800049,0.600012,-1.000000
1.500000,-0.407305,-0.921786,1.018620,-1.667669,-0.417155,-0.905762,0.992786,-1.657976,0.366926,0.800000,0.600000,-1.000000,0.376431,0.800053,0.600006,-1.000000
1.510000,-0.405946,-0.923896,1.022009,-1.668948,-0.416034,-0.907576,0.995703,-1.659077,0.365625,0.800000,0.600000,-1.000000,0.375349,0.800056,0.600000,-1.000000
1.520000,-0.404562,-0.926031,1.025435,-1.670239,-0.414887,-0.909421,0.998670,-1.660198,0.364301,0.800000,0.600000,-1.000000,0.374243,0.800060,0.599995,-1.000000
1.530000,-0.403153,-0.928190,1.028897,-1.671541,-0.413713,-0.911298,1.001688,-1.661336,0.362955,0.800000,0.600000,-1.000000,0.373113,0.800063,0.599990,-1.000000
1.540000,-0.401719,-0.930373,1.032393,-1.672854,-0.412514,-0.913206,1.004753,-1.662492,0.361587,0.800000,0.600000,-1.000000,0.371959,0.800067,0.599986,-1.000000
1.550000,-0.400260,-0.932580,1.035924,-1.674177,-0.411289,-0.915143,1.007865,-1.663664,0.360197,0.800000,0.600000,-1.000000,0.370782,0.800071,0.599982,-1.000000
1.560000,-0.398777,-0.934809,1.039486,-1.675510,-0.410037,-0.917110,1.011022,-1.664853,0.358784,0.800000,0.600000,-1.000000,0.369581,0.800075,0.599978,-1.000000
1.570000,-0.397268,-0.937060,1.043080,-1.676852,-0.408760,-0.919105,1.014222,-1.666056,0.357350,0.800000,0.600000,-1.000000,0.368356,0.800079,0.599975,-1.000000
1.580000,-0.395735,-0.939332,1.046703,-1.678202,-0.407458,-0.921127,1.017465,-1.667275,0.355895,0.800000,0.600000,-1.000000,0.367109,0.800083,0.599971,-1.000000
1.590000,-0.394177,-0.941625,1.050355,-1.679561,-0.406130,-0.923177,1.020750,-1.668507,0.354418,0.800000,0.600000,-1.000000,0.365838,0.800087,0.599969,-1.000000
1.600000,-0.392594,-0.943937,1.054034,-1.680927,-0.404776,-0.925253,1.024073,-1.669752,0.352919,0.800000,0.600000,-1.000000,0.364545,0.800091,0.599966,-1.000000
1.610000,-0.390987,-0.946269,1.057739,-1.682300,-0.403397,-0.927355,1.027435,-1.671011,0.351400,0.800000,0.600000,-1.000000,0.363229,0.800095,0.599963,-1.000000
1.620000,-0.389356,-0.948618,1.061469,-1.683680,-0.401993,-0.929481,1.030834,-1.672281,0.349860,0.800000,0.600000,-1.000000,0.361891,0.800100,0.599961,-1.000000
1.630000,-0.387700,-0.950985,1.065222,-1.685066,-0.400564,-0.931632,1.034268,-1.673563,0.348298,0.800000,0.600000,-1.000000,0.360530,0.800104,0.599959,-1.000000
1.640000,-0.386020,-0.953370,1.068998,-1.686457,-0.399109,-0.933805,1.037737,-1.674856,0.346716,0.800000,0.600000,-1.000000,0.359147,0.800108,0.599957,-1.000000
1.650000,-0.384315,-0.955770,1.072795,-1.687854,-0.397630,-0.936002,1.041239,-1.676159,0.345114,0.800000,0.600000,-1.000000,0.357742,0.800113,0.599955,-1.000000
1.660000,-0.382586,-0.958186,1.076613,-1.689254,-0.396126,-0.938220,1.044771,-1.677473,0.343491,0.800000,0.600000,-1.000000,0.356315,0.800117,0.599953,-1.000000
1.670000,-0.380834,-0.960617,1.080448,-1.690659,-0.394596,-0.940460,1.048333,-1.678795,0.341847,0.800000,0.600000,-1.000000,0.354866,0.800121,0.599951,-1.000000
1.680000,-0.379057,-0.963061,1.084302,-1.692068,-0.393043,-0.942720,1.051925,-1.680127,0.340184,0.800000,0.600000,-1.000000,0.353396,0.800125,0.599949,-1.000000
1.690000,-0.377256,-0.965520,1.088172,-1.693480,-0.391464,-0.945000,1.055545,-1.681466,0.338501,0.800000,0.600000,-1.000000,0.351904,0.800129,0.599947,-1.000000
1.700000,-0.375432,-0.967991,1.092058,-1.694894,-0.389861,-0.947299,1.059191,-1.682813,0.336798,0.800000,0.600000,-1.000000,0.350391,0.800134,0.599945,-1.000000
1.710000,-0.373584,-0.970475,1.095958,-1.696311,-0.388233,-0.949617,1.062864,-1.684166,0.335075,0.800000,0.600000,-1.000000,0.348857,0.800138,0.599944,-1.000000
1.720000,-0.371712,-0.972970,1.099872,-1.697729,-0.386581,-0.951952,1.066560,-1.685526,0.333333,0.800000,0.600000,-1.000000,0.347302,0.800142,0.599942,-1.000000
1.730000,-0.369816,-0.975477,1.103798,-1.699148,-0.384904,-0.954304,1.070279,-1.686892,0.331571,0.800000,0.600000,-1.000000,0.345727,0.800147,0.599941,-1.000000
1.740000,-0.367896,-0.977993,1.107735,-1.700568,-0.383204,-0.956673,1.074021,-1.688263,0.329790,0.800000,0.600000,-1.000000,0.344131,0.800151,0.599940,-1.000000
1.750000,-0.365954,-0.980520,1.111683,-1.701989,-0.381479,-0.959058,1.077783,-1.689639,0.327991,0.800000,0.600000,-1.000000,0.342514,0.800155,0.599938,-1.000000
1.760000,-0.363987,-0.983055,1.115639,-1.703410,-0.379730,-0.961458,1.081564,-1.691020,0.326172,0.800000,0.600000,-1.000000,0.340877,0.800160,0.599937,-1.000000
1.770000,-0.361998,-0.985599,1.119604,-1.704830,-0.377956,-0.963872,1.085363,-1.692405,0.324334,0.800000,0.600000,-1.000000,0.339220,0.800164,0.599936,-1.000000
1.780000,-0.359985,-0.988151,1.123575,-1.706249,-0.376159,-0.966300,1.089179,-1.693794,0.322478,0.800000,0.600000,-1.000000,0.337543,0.800168,0.599935,-1.000000
1.790000,-0.357949,-0.990709,1.127551,-1.707668,-0.374338,-0.968741,1.093011,-1.695185,0.320604,0.800000,0.600000,-1.000000,0.335846,0.800172,0.599933,-1.000000
1.800000,-0.355890,-0.993275,1.131533,-1.709085,-0.372493,-0.971194,1.096859,-1.696579,0.318711,0.800000,0.600000,-1.000000,0.334129,0.800176,0.599932,-1.000000
1.810000,-0.353807,-0.995846,1.135519,-1.710499,-0.370625,-0.973659,1.100720,-1.697975,0.316800,0.800000,0.600000,-1.000000,0.332393,0.800180,0.599931,-1.000000
1.820000,-0.351702,-0.998423,1.139508,-1.711911,-0.368732,-0.976136,1.104594,-1.699373,0.314871,0.800000,0.600000,-1.000000,0.330637,0.800185,0.599930,-1.000000
1.830000,-0.349574,-1.001004,1.143499,-1.713321,-0.366817,-0.978623,1.108481,-1.700772,0.312924,0.800000,0.600000,-1.000000,0.328862,0.800189,0.599929,-1.000000
1.840000,-0.347423,-1.003590,1.147492,-1.714727,-0.364877,-0.981119,1.112377,-1.702171,0.310960,0.800000,0.600000,-1.000000,0.327068,0.800193,0.599928,-1.000000
1.850000,-0.345249,-1.006179,1.151484,-1.716130,-0.362915,-0.983625,1.116284,-1.703571,0.308978,0.800000,0.600000,-1.000000,0.325256,0.800197,0.599928,-1.000000
1.860000,-0.343053,-1.008772,1.155475,-1.717529,-0.360928,-0.986140,1.120199,-1.704970,0.306978,0.800000,0.600000,-1.000000,0.323424,0.800202,0.599927,-1.000000
1.870000,-0.340834,-1.011366,1.159465,-1.718924,-0.358919,-0.988663,1.124122,-1.706369,0.304961,0.800000,0.600000,-1.000000,0.321574,0.800206,0.599926,-1.000000
1.880000,-0.338593,-1.013963,1.163452,-1.720314,-0.356886,-0.991193,1.128050,-1.707768,0.302928,0.800000,0.600000,-1.000000,0.319705,0.800210,0.599925,-1.000000
1.890000,-0.336329,-1.016560,1.167435,-1.721700,-0.354831,-0.993729,1.131983,-1.709166,0.300877,0.800000,0.600000,-1.000000,0.317818,0.800214,0.599924,-1.000000
1.900000,-0.334043,-1.019158,1.171413,-1.723080,-0.352752,-0.996272,1.135921,-1.710562,0.298809,0.800000,0.600000,-1.000000,0.315913,0.800218,0.599923,-1.000000
1.910000,-0.331735,-1.021756,1.175386,-1.724455,-0.350650,-0.998821,1.139863,-1.711955,0.296725,0.800000,0.600000,-1.000000,0.313989,0.800222,0.599923,-1.000000
1.920000,-0.329405,-1.024354,1.179353,-1.725824,-0.348526,-1.001374,1.143808,-1.713346,0.294624,0.800000,0.600000,-1.000000,0.312048,0.800226,0.599922,-1.000000
1.930000,-0.327052,-1.026951,1.183313,-1.727188,-0.346378,-1.003932,1.147754,-1.714735,0.292507,0.800000,0.600000,-1.000000,0.310090,0.800230,0.599921,-1.000000
1.940000,-0.324678,-1.029546,1.187265,-1.728544,-0.344208,-1.006493,1.151701,-1.716120,0.290374,0.800000,0.600000,-1.000000,0.308113,0.800234,0.599921,-1.000000
1.950000,-0.322282,-1.032139,1.191208,-1.729894,-0.342016,-1.009058,1.155647,-1.717501,0.288225,0.800000,0.600000,-1.000000,0.306119,0.800238,0.599920,-1.000000
1.960000,-0.319864,-1.034730,1.195142,-1.731237,-0.339801,-1.011625,1.159592,-1.718878,0.286059,0.800000,0.600000,-1.000000,0.304108,0.800242,0.599920,-1.000000
1.970000,-0.317424,-1.037317,1.199065,-1.732573,-0.337563,-1.014194,1.163536,-1.720252,0.283878,0.800000,0.600000,-1.000000,0.302080,0.800246,0.599920,-1.000000
1.980000,-0.314963,-1.039901,1.202977,-1.733901,-0.335303,-1.016765,1.167476,-1.721620,0.281682,0.800000,0.600000,-1.000000,0.300035,0.800250,0.599919,-1.000000
1.990000,-0.312481,-1.042480,1.206877,-1.735221,-0.333021,-1.019336,1.171411,-1.722985,0.279470,0.800000,0.600000,-1.000000,0.297973,0.800254,0.599919,-1.000000
2.000000,-0.309977,-1.045054,1.210763,-1.736534,-0.330716,-1.021908,1.175341,-1.724345,0.277242,0.800000,0.600000,-1.000000,0.295895,0.800257,0.599918,-1.000000
2.010000,-0.307452,-1.047622,1.214636,-1.737839,-0.328390,-1.024480,1.179266,-1.725699,0.275000,0.800000,0.600000,-1.000000,0.293799,0.800261,0.599918,-1.000000
2.020000,-0.304905,-1.050185,1.218494,-1.739135,-0.326041,-1.027050,1.183184,-1.727047,0.272743,0.800000,0.600000,-1.000000,0.291688,0.800265,0.599917,-1.000000
2.030000,-0.302338,-1.052741,1.222337,-1.740422,-0.323671,-1.029619,1.187095,-1.728389,0.270470,0.800000,0.600000,-1.000000,0.289560,0.800268,0.599917,-1.000000
2.040000,-0.299750,-1.055291,1.226165,-1.741700,-0.321279,-1.032186,1.190998,-1.729724,0.268183,0.800000,0.600000,-1.000000,0.287417,0.800272,0.599917,-1.000000
2.050000,-0.297141,-1.057833,1.229976,-1.742969,-0.318865,-1.034751,1.194891,-1.731053,0.265882,0.800000,0.600000,-1.000000,0.285257,0.800276,0.599916,-1.000000
2.060000,-0.294511,-1.060367,1.233769,-1.744228,-0.316430,-1.037313,1.198775,-1.732375,0.263566,0.800000,0.600000,-1.000000,0.283082,0.800279,0.599916,-1.000000
2.070000,-0.291861,-1.062892,1.237545,-1.745478,-0.313973,-1.039870,1.202648,-1.733689,0.261235,0.800000,0.600000,-1.000000,0.280891,0.800283,0.599916,-1.000000
2.080000,-0.289190,-1.065409,1.241301,-1.746718,-0.311495,-1.042424,1.206509,-1.734996,0.258891,0.800000,0.600000,-1.000000,0.278684,0.800287,0.599916,-1.000000
2.090000,-0.286499,-1.067916,1.245039,-1.747948,-0.308995,-1.044973,1.210358,-1.736295,0.256533,0.800000,0.600000,-1.000000,0.276463,0.800291,0.599916,-1.000000
2.100000,-0.283787,-1.070413,1.248756,-1.749168,-0.306474,-1.047517,1.214194,-1.737586,0.254161,0.800000,0.600000,-1.000000,0.274226,0.800294,0.599916,-1.000000
2.110000,-0.281056,-1.072899,1.252452,-1.750377,-0.303932,-1.050056,1.218015,-1.738870,0.251775,0.800000,0.600000,-1.000000,0.271974,0.800297,0.599916,-1.000000
2.120000,-0.278304,-1.075374,1.256126,-1.751576,-0.301370,-1.052587,1.221821,-1.740146,0.249376,0.800000,0.600000,-1.000000,0.269707,0.800301,0.599916,-1.000000
2.130000,-0.275533,-1.077838,1.259777,-1.752765,-0.298786,-1.055112,1.225612,-1.741413,0.246963,0.800000,0.600000,-1.000000,0.267426,0.800304,0.599916,-1.000000
2.140000,-0.272742,-1.080290,1.263406,-1.753942,-0.296181,-1.057630,1.229387,-1.742670,0.244537,0.800000,0.600000,-1.000000,0.265130,0.800307,0.599916,-1.000000
2.150000,-0.269931,-1.082729,1.267012,-1.755108,-0.293556,-1.060140,1.233145,-1.743919,0.242099,0.800000,0.600000,-1.000000,0.262820,0.800311,0.599916,-1.000000
2.160000,-0.267101,-1.085156,1.270593,-1.756263,-0.290911,-1.062642,1.236886,-1.745158,0.239647,0.800000,0.600000,-1.000000,0.260495,0.800314,0.599916,-1.000000
2.170000,-0.264251,-1.087569,1.274150,-1.757407,-0.288245,-1.065134,1.240608,-1.746387,0.237182,0.800000,0.600000,-1.000000,0.258157,0.800317,0.599916,-1.000000
2.180000,-0.261383,-1.089968,1.277681,-1.758539,-0.285559,-1.067618,1.244311,-1.747607,0.234705,0.800000,0.600000,-1.000000,0.255804,0.800321,0.599916,-1.000000
2.190000,-0.258495,-1.092353,1.281186,-1.759659,-0.282852,-1.070091,1.247995,-1.748816,0.232216,0.800000,0.600000,-1.000000,0.253438,0.800324,0.599917,-1.000000
2.200000,-0.255588,-1.094723,1.284665,-1.760767,-0.280126,-1.072554,1.251658,-1.750016,0.229714,0.800000,0.600000,-1.000000,0.251058,0.800327,0.599917,-1.000000
2.210000,-0.252663,-1.097078,1.288116,-1.761864,-0.277380,-1.075007,1.255300,-1.751204,0.227200,0.800000,0.600000,-1.000000,0.248664,0.800330,0.599917,-1.000000
2.220000,-0.249719,-1.099417,1.291540,-1.762948,-0.274613,-1.077448,1.258920,-1.752383,0.224674,0.800000,0.600000,-1.000000,0.246258,0.800334,0.599918,-1.000000
2.230000,-0.246756,-1.101740,1.294935,-1.764020,-0.271828,-1.079877,1.262518,-1.753551,0.222136,0.800000,0.600000,-1.000000,0.243838,0.800337,0.599918,-1.000000
2.240000,-0.243775,-1.104046,1.298301,-1.765080,-0.269022,-1.082294,1.266093,-1.754707,0.219587,0.800000,0.600000,-1.000000,0.241405,0.800340,0.599919,-1.000000
2.250000,-0.240776,-1.106335,1.301638,-1.766127,-0.266198,-1.084698,1.269643,-1.755855,0.217026,0.800000,0.600000,-1.000000,0.238959,0.800343,0.599919,-1.000000
2.260000,-0.237759,-1.108606,1.304944,-1.767162,-0.263354,-1.087089,1.273168,-1.756990,0.214453,0.800000,0.600000,-1.000000,0.236500,0.800346,0.599919,-1.000000
2.270000,-0.234724,-1.110859,1.308219,-1.768185,-0.260491,-1.089466,1.276669,-1.758115,0.211869,0.800000,0.600000,-1.000000,0.234029,0.800349,0.599919,-1.000000
2.280000,-0.231671,-1.113094,1.311464,-1.769195,-0.257609,-1.091829,1.280144,-1.759228,0.209275,0.800000,0.600000,-1.000000,0.231545,0.800351,0.599920,-1.000000
2.290000,-0.228601,-1.115310,1.314676,-1.770192,-0.254708,-1.094177,1.283593,-1.760329,0.206669,0.800000,0.600000,-1.000000,0.229050,0.800354,0.599920,-1.000000
2.300000,-0.225513,-1.117507,1.317857,-1.771175,-0.251789,-1.096510,1.287015,-1.761419,0.204052,0.800000,0.600000,-1.000000,0.226542,0.800357,0.599921,-1.000000
2.310000,-0.222409,-1.119684,1.321005,-1.772146,-0.248851,-1.098827,1.290410,-1.762496,0.201425,0.800000,0.600000,-1.000000,0.224022,0.800360,0.599921,-1.000000
2.320000,-0.219287,-1.121841,1.324119,-1.773104,-0.245894,-1.101129,1.293777,-1.763561,0.198787,0.800000,0.600000,-1.000000,0.221490,0.800363,0.599922,-1.000000
2.330000,-0.216148,-1.123978,1.327200,-1.774048,-0.242920,-1.103413,1.297115,-1.764615,0.196139,0.800000,0.600000,-1.000000,0.218946,0.800366,0.599923,-1.000000
2.340000,-0.212993,-1.126093,1.330247,-1.774980,-0.239927,-1.105681,1.300425,-1.765655,0.193481,0.800000,0.600000,-1.000000,0.216391,0.800369,0.599923,-1.000000
2.350000,-0.209821,-1.128187,1.333259,-1.775898,-0.236916,-1.107932,1.303704,-1.766684,0.190813,0.800000,0.600000,-1.000000,0.213825,0.800371,0.599924,-1.000000
2.360000,-0.206632,-1.130259,1.336236,-1.776802,-0.233888,-1.110165,1.306954,-1.767700,0.188134,0.800000,0.600000,-1.000000,0.211248,0.800374,0.599925,-1.000000
2.370000,-0.203428,-1.132310,1.339178,-1.777693,-0.230842,-1.112379,1.310173,-1.768704,0.185446,0.800000,0.600000,-1.000000,0.208659,0.800377,0.599926,-1.000000
2.380000,-0.200208,-1.134337,1.342083,-1.778571,-0.227779,-1.114575,1.313360,-1.769694,0.182749,0.800000,0.600000,-1.000000,0.206059,0.800380,0.599927,-1.000000
2.390000,-0.196972,-1.136342,1.344952,-1.779435,-0.224698,-1.116752,1.316516,-1.770672,0.180042,0.800000,0.600000,-1.000000,0.203449,0.800382,0.599927,-1.000000
2.400000,-0.193720,-1.138323,1.347784,-1.780285,-0.221600,-1.118909,1.319640,-1.771638,0.177325,0.800000,0.600000,-1.000000,0.200828,0.800385,0.599928,-1.000000
2.410000,-0.190453,-1.140280,1.350578,-1.781122,-0.218485,-1.121046,1.322730,-1.772590,0.174600,0.800000,0.600000,-1.000000,0.198197,0.800388,0.599929,-1.000000
2.420000,-0.187171,-1.142214,1.353335,-1.781945,-0.215354,-1.123163,1.325788,-1.773529,0.171866,0.800000,0.600000,-1.000000,0.195555,0.800391,0.599930,-1.000000
2.430000,-0.183873,-1.144122,1.356053,-1.782754,-0.212206,-1.125259,1.328811,-1.774455,0.169122,0.800000,0.600000,-1.000000,0.192903,0.800393,0.599931,-1.000000
2.440000,-0.180561,-1.146006,1.358733,-1.783550,-0.209041,-1.127333,1.331799,-1.775370,0.166370,0.800000,0.600000,-1.000000,0.190241,0.800395,0.599932,-1.000000
2.450000,-0.177235,-1.147864,1.361373,-1.784332,-0.205861,-1.129386,1.334752,-1.776271,0.163610,0.800000,0.600000,-1.000000,0.187570,0.800397,0.599932,-1.000000
2.460000,-0.173894,-1.149696,1.363973,-1.785100,-0.202664,-1.131417,1.337670,-1.777159,0.160841,0.800000,0.600000,-1.000000,0.184888,0.800400,0.599933,-1.000000
2.470000,-0.170538,-1.151503,1.366534,-1.785855,-0.199451,-1.133426,1.340552,-1.778034,0.158063,0.800000,0.600000,-1.000000,0.182197,0.800402,0.599934,-1.000000
2.480000,-0.167169,-1.153283,1.369054,-1.786595,-0.196223,-1.135412,1.343399,-1.778895,0.155278,0.800000,0.600000,-1.000000,0.179497,0.800404,0.599935,-1.000000
2.490000,-0.163786,-1.155036,1.371534,-1.787322,-0.192980,-1.137374,1.346208,-1.779742,0.152485,0.800000,0.600000,-1.000000,0.176787,0.800406,0.599936,-1.000000
2.500000,-0.160390,-1.156763,1.373973,-1.788035,-0.189721,-1.139313,1.348981,-1.780576,0.149684,0.800000,0.600000,-1.000000,0.174068,0.800408,0.599937,-1.000000
2.510000,-0.156980,-1.158462,1.376371,-1.788733,-0.186447,-1.141228,1.351716,-1.781397,0.146875,0.800000,0.600000,-1.000000,0.171340,0.800411,0.599938,-1.000000
2.520000,-0.153557,-1.160133,1.378726,-1.789418,-0.183158,-1.143118,1.354414,-1.782203,0.144059,0.800000,0.600000,-1.000000,0.168604,0.800413,0.599939,-1.000000
2.530000,-0.150121,-1.161776,1.381040,-1.790089,-0.179854,-1.144984,1.357073,-1.782996,0.141235,0.800000,0.600000,-1.000000,0.165858,0.800415,0.599940,-1.000000
2.540000,-0.146673,-1.163391,1.383312,-1.790745,-0.176536,-1.146825,1.359693,-1.783776,0.138404,0.800000,0.600000,-1.000000,0.163105,0.800417,0.599941,-1.000000
2.550000,-0.143212,-1.164976,1.385541,-1.791388,-0.173204,-1.148640,1.362274,-1.784541,0.135567,0.800000,0.600000,-1.000000,0.160342,0.800419,0.599942,-1.000000
2.560000,-0.139739,-1.166533,1.387726,-1.792017,-0.169857,-1.150429,1.364816,-1.785293,0.132722,0.800000,0.600000,-1.000000,0.157572,0.800422,0.599943,-1.000000
2.570000,-0.136254,-1.168061,1.389869,-1.792631,-0.166497,-1.152192,1.367318,-1.786031,0.129870,0.800000,0.600000,-1.000000,0.154794,0.800424,0.599944,-1.000000
2.580000,-0.132758,-1.169559,1.391967,-1.793232,-0.163123,-1.153929,1.369780,-1.786755,0.127012,0.800000,0.600000,-1.000000,0.152008,0.800426,0.599945,-1.000000
2.590000,-0.129250,-1.171027,1.394022,-1.793819,-0.159736,-1.155639,1.372201,-1.787466,0.124148,0.800000,0.600000,-1.000000,0.149213,0.800428,0.599946,-1.000000
2.600000,-0.125730,-1.172464,1.396032,-1.794391,-0.156335,-1.157321,1.374581,-1.788162,0.121277,0.800000,0.600000,-1.000000,0.146412,0.800430,0.599947,-1.000000
2.610000,-0.122200,-1.173871,1.397998,-1.794950,-0.152922,-1.158976,1.376919,-1.788845,0.118400,0.800000,0.600000,-1.000000,0.143603,0.800432,0.599948,-1.000000
2.620000,-0.118659,-1.175247,1.399919,-1.795494,-0.149495,-1.160603,1.379216,-1.789514,0.115517,0.800000,0.600000,-1.000000,0.140786,0.800434,0.599950,-1.000000
2.630000,-0.115107,-1.176592,1.401795,-1.796025,-0.146057,-1.162202,1.381471,-1.790169,0.112628,0.800000,0.600000,-1.000000,0.137963,0.800436,0.599951,-1.000000
2.640000,-0.111546,-1.177906,1.403625,-1.796541,-0.142606,-1.163773,1.383684,-1.790810,0.109734,0.800000,0.600000,-1.000000,0.135132,0.800438,0.599952,-1.000000
2.650000,-0.107974,-1.179188,1.405410,-1.797044,-0.139142,-1.165314,1.385853,-1.791437,0.106834,0.800000,0.600000,-1.000000,0.132295,0.800440,0.599953,-1.000000
2.660000,-0.104392,-1.180438,1.407149,-1.797533,-0.135667,-1.166827,1.387980,-1.792050,0.103928,0.800000,0.600000,-1.000000,0.129450,0.800442,0.599954,-1.000000
2.670000,-0.100801,-1.181656,1.408841,-1.798007,-0.132181,-1.168309,1.390063,-1.792650,0.101017,0.800000,0.600000,-1.000000,0.126600,0.800443,0.599955,-1.000000
2.680000,-0.097201,-1.182841,1.410488,-1.798468,-0.128683,-1.169763,1.392102,-1.793237,0.098102,0.800000,0.600000,-1.000000,0.123743,0.800445,0.599956,-1.000000
2.690000,-0.093592,-1.183993,1.412087,-1.798915,-0.125174,-1.171186,1.394096,-1.793810,0.095181,0.800000,0.600000,-1.000000,0.120879,0.800446,0.599957,-1.000000
2.700000,-0.089974,-1.185112,1.413639,-1.799348,-0.121654,-1.172578,1.396047,-1.794369,0.092255,0.800000,0.600000,-1.000000,0.118010,0.800447,0.599958,-1.000000
2.710000,-0.086347,-1.186198,1.415144,-1.799768,-0.118123,-1.173940,1.397953,-1.794914,0.089325,0.800000,0.600000,-1.000000,0.115134,0.800449,0.599959,-1.000000
2.720000,-0.082713,-1.187251,1.416601,-1.800173,-0.114582,-1.175271,1.399814,-1.795445,0.086390,0.800000,0.600000,-1.000000,0.112253,0.800450,0.599960,-1.000000
2.730000,-0.079070,-1.188270,1.418012,-1.800564,-0.111031,-1.176571,1.401630,-1.795962,0.083451,0.800000,0.600000,-1.000000,0.109366,0.800452,0.599961,-1.000000
2.740000,-0.075420,-1.189256,1.419374,-1.800942,-0.107470,-1.177840,1.403400,-1.796465,0.080508,0.800000,0.600000,-1.000000,0.106473,0.800453,0.599962,-1.000000
2.750000,-0.071763,-1.190207,1.420689,-1.801305,-0.103899,-1.179076,1.405126,-1.796953,0.077561,0.800000,0.600000,-1.000000,0.103576,0.800454,0.599963,-1.000000
2.760000,-0.068098,-1.191124,1.421956,-1.801655,-0.100319,-1.180281,1.406805,-1.797428,0.074609,0.800000,0.600000,-1.000000,0.100672,0.800456,0.599964,-1.000000
2.770000,-0.064427,-1.192007,1.423174,-1.801991,-0.096730,-1.181454,1.408438,-1.797889,0.071654,0.800000,0.600000,-1.000000,0.097764,0.800457,0.599965,-1.000000
2.780000,-0.060749,-1.192855,1.424344,-1.802313,-0.093132,-1.182594,1.410025,-1.798337,0.068696,0.800000,0.600000,-1.000000,0.094851,0.800458,0.599966,-1.000000
2.790000,-0.057064,-1.193668,1.425466,-1.802621,-0.089525,-1.183701,1.411566,-1.798770,0.065734,0.800000,0.600000,-1.000000,0.091934,0.800460,0.599967,-1.000000
2.800000,-0.053374,-1.194447,1.426539,-1.802915,-0.085910,-1.184776,1.413060,-1.799189,0.062768,0.800000,0.600000,-1.000000,0.089011,0.800461,0.599968,-1.000000
2.810000,-0.049678,-1.195190,1.427563,-1.803196,-0.082287,-1.185817,1.414507,-1.799594,0.059800,0.800000,0.600000,-1.000000,0.086084,0.800462,0.599968,-1.000000
2.820000,-0.045977,-1.195898,1.428538,-1.803463,-0.078656,-1.186825,1.415906,-1.799986,0.056829,0.800000,0.600000,-1.000000,0.083153,0.800464,0.599969,-1.000000
2.830000,-0.042270,-1.196571,1.429463,-1.803715,-0.075017,-1.187800,1.417259,-1.800363,0.053854,0.800000,0.600000,-1.000000,0.080218,0.800465,0.599970,-1.000000
2.840000,-0.038559,-1.197208,1.430340,-1.803955,-0.071371,-1.188741,1.418564,-1.800727,0.050877,0.800000,0.600000,-1.000000,0.077279,0.800466,0.599971,-1.000000
2.850000,-0.034843,-1.197810,1.431167,-1.804180,-0.067718,-1.189648,1.419821,-1.801076,0.047898,0.800000,0.600000,-1.000000,0.074335,0.800467,0.599972,-1.000000
2.860000,-0.031122,-1.198376,1.431944,-1.804392,-0.064059,-1.190521,1.421030,-1.801412,0.044916,0.800000,0.600000,-1.000000,0.071388,0.800469,0.599973,-1.000000
2.870000,-0.027398,-1.198905,1.432672,-1.804590,-0.060393,-1.191359,1.422191,-1.801735,0.041931,0.800000,0.600000,-1.000000,0.068438,0.800470,0.599974,-1.000000
2.880000,-0.023670,-1.199399,1.433350,-1.804774,-0.056720,-1.192163,1.423303,-1.802043,0.038945,0.800000,0.600000,-1.000000,0.065484,0.800471,0.599975,-1.000000
2.890000,-0.019938,-1.199857,1.433978,-1.804944,-0.053042,-1.192932,1.424368,-1.802337,0.035957,0.800000,0.600000,-1.000000,0.062527,0.800472,0.599976,-1.000000
2.900000,-0.016204,-1.200278,1.434557,-1.805101,-0.049358,-1.193667,1.425384,-1.802618,0.032967,0.800000,0.600000,-1.000000,0.059567,0.800473,0.599977,-1.000000
2.910000,-0.012466,-1.200663,1.435085,-1.805244,-0.045669,-1.194367,1.426351,-1.802885,0.029975,0.800000,0.600000,-1.000000,0.056603,0.800474,0.599978,-1.000000
2.920000,-0.008726,-1.201012,1.435563,-1.805374,-0.041975,-1.195031,1.427269,-1.803138,0.026982,0.800000,0.600000,-1.000000,0.053637,0.800475,0.599979,-1.000000
2.930000,-0.004984,-1.201324,1.435991,-1.805490,-0.038276,-1.195660,1.428138,-1.803377,0.023987,0.800000,0.600000,-1.000000,0.050668,0.800476,0.599979,-1.000000
2.940000,-0.001239,-1.201600,1.436369,-1.805592,-0.034572,-1.196254,1.428958,-1.803603,0.020991,0.800000,0.600000,-1.000000,0.047697,0.800477,0.599980,-1.000000
2.950000,0.002507,-1.201838,1.436697,-1.805680,-0.030864,-1.196813,1.429729,-1.803815,0.017995,0.800000,0.600000,-1.000000,0.044724,0.800478,0.599981,-1.000000
2.960000,0.006254,-1.202041,1.436974,-1.805755,-0.027152,-1.197336,1.430450,-1.804013,0.014997,0.800000,0.600000,-1.000000,0.041748,0.800479,0.599982,-1.000000
2.970000,0.010003,-1.202206,1.437201,-1.805816,-0.023437,-1.197823,1.431122,-1.804198,0.011998,0.800000,0.600000,-1.000000,0.038770,0.800480,0.599982,-1.000000
2.980000,0.013752,-1.202335,1.437378,-1.805864,-0.019718,-1.198274,1.431745,-1.804368,0.008999,0.800000,0.600000,-1.000000,0.035790,0.800480,0.599983,-1.000000
2.990000,0.017502,-1.202427,1.437504,-1.805898,-0.015996,-1.198689,1.432318,-1.804525,0.006000,0.800000,0.600000,-1.000000,0.032808,0.800481,0.599984,-1.000000
3.000000,0.021253,-1.202483,1.437579,-1.805918,-0.012271,-1.199069,1.432841,-1.804669,0.003000,0.800000,0.600000,-1.000000,0.029825,0.800482,0.599984,-1.000000
3.010000,0.025003,-1.202509,1.437614,-1.805914,-0.008544,-1.199413,1.433315,-1.804797,0.000000,0.800000,0.600000,-1.000000,0.026840,0.800483,0.599985,-1.000000
3.020000,0.028752,-1.202483,1.437580,-1.805918,-0.004814,-1.199720,1.433739,-1.804913,-0.003000,0.800000,0.600000,-1.000000,0.023854,0.800483,0.599985,-1.000000
3.030000,0.032502,-1.202428,1.437504,-1.805897,-0.001083,-1.199990,1.434113,-1.805016,-0.006000,0.800000,0.600000,-1.000000,0.020867,0.800484,0.599986,-1.000000
3.040000,0.036250,-1.202336,1.437378,-1.805863,0.002651,-1.200225,1.434436,-1.805105,-0.008999,0.800000,0.600000,-1.000000,0.017878,0.800485,0.599987,-1.000000
3.050000,0.039997,-1.202207,1.437202,-1.805816,0.006385,-1.200423,1.434710,-1.805180,-0.011998,0.800000,0.600000,-1.000000,0.014889,0.800485,0.599987,-1.000000
3.060000,0.043742,-1.202042,1.436975,-1.805754,0.010121,-1.200585,1.434934,-1.805241,-0.014997,0.800000,0.600000,-1.000000,0.011899,0.800486,0.599988,-1.000000
3.070000,0.047486,-1.201840,1.436698,-1.805679,0.013857,-1.200710,1.435107,-1.805289,-0.017995,0.800000,0.600000,-1.000000,0.008909,0.800486,0.599988,-1.000000
3.080000,0.051227,-1.201601,1.436371,-1.805590,0.017594,-1.200800,1.435231,-1.805323,-0.020991,0.800000,0.600000,-1.000000,0.005918,0.800487,0.599988,-1.000000
3.090000,0.054966,-1.201325,1.435993,-1.805488,0.021332,-1.200852,1.435304,-1.805344,-0.023987,0.800000,0.600000,-1.000000,0.002926,0.800487,0.599989,-1.000000
3.100000,0.058703,-1.201013,1.435565,-1.805372,0.025069,-1.200868,1.435327,-1.805351,-0.026982,0.800000,0.600000,-1.000000,-0.000065,0.800487,0.599989,-1.000000
3.110000,0.062436,-1.200665,1.435087,-1.805243,0.028805,-1.200848,1.435300,-1.805344,-0.029975,0.800000,0.600000,-1.000000,-0.003056,0.800488,0.599989,-1.000000
3.120000,0.066166,-1.200280,1.434559,-1.805099,0.032542,-1.200791,1.435223,-1.805323,-0.032967,0.800000,0.600000,-1.000000,-0.006048,0.800488,0.599990,-1.000000
3.130000,0.069893,-1.199859,1.433981,-1.804942,0.036277,-1.200698,1.435096,-1.805289,-0.035957,0.800000,0.600000,-1.000000,-0.009039,0.800488,0.599990,-1.000000
3.140000,0.073616,-1.199401,1.433353,-1.804772,0.040011,-1.200568,1.434919,-1.805242,-0.038945,0.800000,0.600000,-1.000000,-0.012029,0.800489,0.599990,-1.000000
3.150000,0.077335,-1.198907,1.432675,-1.804587,0.043743,-1.200402,1.434692,-1.805180,-0.041931,0.800000,0.600000,-1.000000,-0.015019,0.800489,0.599990,-1.000000
3.160000,0.081049,-1.198378,1.431947,-1.804389,0.047474,-1.200200,1.434414,-1.805105,-0.044916,0.800000,0.600000,-1.000000,-0.018008,0.800489,0.599990,-1.000000
3.170000,0.084758,-1.197812,1.431170,-1.804178,0.051202,-1.199961,1.434087,-1.805016,-0.047898,0.800000,0.600000,-1.000000,-0.020996,0.800489,0.599990,-1.000000
3.180000,0.088463,-1.197211,1.430343,-1.803952,0.054928,-1.199686,1.433710,-1.804914,-0.050877,0.800000,0.600000,-1.000000,-0.023983,0.800489,0.599990,-1.000000
3.190000,0.092162,-1.196574,1.429467,-1.803713,0.058652,-1.199375,1.433282,-1.804798,-0.053854,0.800000,0.600000,-1.000000,-0.026969,0.800489,0.599990,-1.000000
3.200000,0.095856,-1.195901,1.428541,-1.803460,0.062372,-1.199027,1.432805,-1.804668,-0.056829,0.800000,0.600000,-1.000000,-0.029954,0.800489,0.599990,-1.000000
3.210000,0.099544,-1.195193,1.427566,-1.803193,0.066089,-1.198644,1.432278,-1.804525,-0.059800,0.800000,0.600000,-1.000000,-0.032937,0.800489,0.599990,-1.000000
3.220000,0.103226,-1.194449,1.426542,-1.802913,0.069803,-1.198224,1.431702,-1.804368,-0.062768,0.800000,0.600000,-1.000000,-0.035919,0.800489,0.599990,-1.000000
3.230000,0.106902,-1.193671,1.425469,-1.802618,0.073513,-1.197769,1.431076,-1.804197,-0.065734,0.800000,0.600000,-1.000000,-0.038898,0.800489,0.599990,-1.000000
3.240000,0.110571,-1.192857,1.424348,-1.802310,0.077219,-1.197278,1.430400,-1.804012,-0.068696,0.800000,0.600000,-1.000000,-0.041876,0.800489,0.599990,-1.000000
3.250000,0.114232,-1.192009,1.423178,-1.801988,0.080920,-1.196751,1.429675,-1.803814,-0.071654,0.800000,0.600000,-1.000000,-0.044852,0.800489,0.599990,-1.000000
3.260000,0.117887,-1.191126,1.421959,-1.801653,0.084617,-1.196188,1.428900,-1.803602,-0.074609,0.800000,0.600000,-1.000000,-0.047825,0.800489,0.599990,-1.000000
3.270000,0.121535,-1.190209,1.420692,-1.801303,0.088308,-1.195591,1.428076,-1.803376,-0.077561,0.800000,0.600000,-1.000000,-0.050796,0.800489,0.599989,-1.000000
3.280000,0.125174,-1.189258,1.419377,-1.800940,0.091995,-1.194957,1.427203,-1.803137,-0.080508,0.800000,0.600000,-1.000000,-0.053764,0.800488,0.599989,-1.000000
3.290000,0.128806,-1.188272,1.418015,-1.800562,0.095676,-1.194289,1.426281,-1.802884,-0.083451,0.800000,0.600000,-1.000000,-0.056730,0.800488,0.599989,-1.000000
3.300000,0.132429,-1.187253,1.416604,-1.800171,0.099351,-1.193585,1.425311,-1.802617,-0.086390,0.800000,0.600000,-1.000000,-0.059693,0.800488,0.599989,-1.000000
3.310000,0.136044,-1.186200,1.415146,-1.799766,0.103021,-1.192847,1.424291,-1.802336,-0.089325,0.800000,0.600000,-1.000000,-0.062653,0.800487,0.599988,-1.000000
3.320000,0.139650,-1.185113,1.413640,-1.799347,0.106683,-1.192073,1.423223,-1.802041,-0.092255,0.800000,0.600000,-1.000000,-0.065610,0.800487,0.599988,-1.000000
3.330000,0.143247,-1.183994,1.412088,-1.798914,0.110340,-1.191265,1.422106,-1.801733,-0.095181,0.800000,0.600000,-1.000000,-0.068563,0.800487,0.599987,-1.000000
3.340000,0.146834,-1.182841,1.410489,-1.798467,0.113989,-1.190423,1.420941,-1.801411,-0.098102,0.800000,0.600000,-1.000000,-0.071513,0.800486,0.599987,-1.000000
3.350000,0.150412,-1.181656,1.408843,-1.798007,0.117632,-1.189546,1.419728,-1.801075,-0.101017,0.800000,0.600000,-1.000000,-0.074460,0.800486,0.599986,-1.000000
3.360000,0.153981,-1.180439,1.407150,-1.797532,0.121266,-1.188635,1.418467,-1.800725,-0.103928,0.800000,0.600000,-1.000000,-0.077403,0.800485,0.599986,-1.000000
3.370000,0.157539,-1.179189,1.405411,-1.797043,0.124894,-1.187691,1.417158,-1.800361,-0.106834,0.800000,0.600000,-1.000000,-0.080342,0.800485,0.599985,-1.000000
3.380000,0.161087,-1.177907,1.403627,-1.796541,0.128513,-1.186712,1.415802,-1.799983,-0.109734,0.800000,0.600000,-1.000000,-0.083276,0.800484,0.599985,-1.000000
3.390000,0.164624,-1.176593,1.401797,-1.796024,0.132124,-1.185701,1.414398,-1.799592,-0.112628,0.800000,0.600000,-1.000000,-0.086207,0.800483,0.599984,-1.000000
3.400000,0.168151,-1.175248,1.399921,-1.795493,0.135727,-1.184655,1.412947,-1.799187,-0.115517,0.800000,0.600000,-1.000000,-0.089133,0.800483,0.599983,-1.000000
3.410000,0.171666,-1.173872,1.398000,-1.794949,0.139321,-1.183577,1.411449,-1.798768,-0.118400,0.800000,0.600000,-1.000000,-0.092055,0.800482,0.599983,-1.000000
3.420000,0.175171,-1.172465,1.396034,-1.794390,0.142906,-1.182466,1.409904,-1.798334,-0.121277,0.800000,0.600000,-1.000000,-0.094973,0.800481,0.599982,-1.000000
3.430000,0.178663,-1.171028,1.394024,-1.793817,0.146482,-1.181322,1.408312,-1.797887,-0.124148,0.800000,0.600000,-1.000000,-0.097885,0.800480,0.599981,-1.000000
3.440000,0.182144,-1.169560,1.391969,-1.793231,0.150048,-1.180146,1.406674,-1.797426,-0.127012,0.800000,0.600000,-1.000000,-0.100793,0.800479,0.599980,-1.000000
3.450000,0.185613,-1.168062,1.389871,-1.792630,0.153604,-1.178938,1.404991,-1.796952,-0.129870,0.800000,0.600000,-1.000000,-0.103695,0.800479,0.599980,-1.000000
3.460000,0.189070,-1.166535,1.387728,-1.792016,0.157151,-1.177697,1.403261,-1.796463,-0.132722,0.800000,0.600000,-1.000000,-0.106592,0.800478,0.599979,-1.000000
3.470000,0.192515,-1.164978,1.385543,-1.791387,0.160687,-1.176425,1.401485,-1.795960,-0.135567,0.800000,0.600000,-1.000000,-0.109484,0.800477,0.599978,-1.000000
3.480000,0.195946,-1.163392,1.383314,-1.790744,0.164213,-1.175122,1.399664,-1.795443,-0.138404,0.800000,0.600000,-1.000000,-0.112370,0.800476,0.599977,-1.000000
3.490000,0.199365,-1.161777,1.381042,-1.790088,0.167728,-1.173787,1.397798,-1.794913,-0.141235,0.800000,0.600000,-1.000000,-0.115251,0.800475,0.599976,-1.000000
3.500000,0.202771,-1.160134,1.378728,-1.789417,0.171233,-1.172422,1.395888,-1.794368,-0.144059,0.800000,0.600000,-1.000000,-0.118126,0.800474,0.599975,-1.000000
3.510000,0.206163,-1.158462,1.376372,-1.788733,0.174726,-1.171026,1.393932,-1.793810,-0.146875,0.800000,0.600000,-1.000000,-0.120995,0.800473,0.599974,-1.000000
3.520000,0.209542,-1.156763,1.373974,-1.788034,0.178207,-1.169600,1.391932,-1.793237,-0.149684,0.800000,0.600000,-1.000000,-0.123857,0.800471,0.599973,-1.000000
3.530000,0.212907,-1.155037,1.371535,-1.787322,0.181677,-1.168144,1.389889,-1.792651,-0.152485,0.800000,0.600000,-1.000000,-0.126714,0.800470,0.599972,-1.000000
3.540000,0.216258,-1.153283,1.369055,-1.786595,0.185135,-1.166657,1.387801,-1.792051,-0.155278,0.800000,0.600000,-1.000000,-0.129564,0.800469,0.599971,-1.000000
3.550000,0.219595,-1.151503,1.366534,-1.785855,0.188581,-1.165142,1.385672,-1.791435,-0.158063,0.800000,0.600000,-1.000000,-0.132408,0.800468,0.599971,-1.000000
3.560000,0.222918,-1.149697,1.363974,-1.785101,0.192015,-1.163597,1.383499,-1.790805,-0.160841,0.800000,0.600000,-1.000000,-0.135244,0.800467,0.599970,-1.000000
3.570000,0.226226,-1.147864,1.361373,-1.784332,0.195436,-1.162024,1.381284,-1.790162,-0.163610,0.800000,0.600000,-1.000000,-0.138074,0.800467,0.599969,-1.000000
3.580000,0.229519,-1.146006,1.358733,-1.783550,0.198844,-1.160422,1.379026,-1.789504,-0.166370,0.800000,0.600000,-1.000000,-0.140897,0.800466,0.599968,-1.000000
3.590000,0.232797,-1.144123,1.356054,-1.782754,0.202240,-1.158792,1.376726,-1.788833,-0.169122,0.800000,0.600000,-1.000000,-0.143713,0.800464,0.599968,-1.000000
3.600000,0.236060,-1.142214,1.353336,-1.781944,0.205622,-1.157135,1.374384,-1.788148,-0.171866,0.800000,0.600000,-1.000000,-0.146522,0.800463,0.599967,-1.000000
3.610000,0.239308,-1.140282,1.350580,-1.781121,0.208990,-1.155449,1.372000,-1.787449,-0.174600,0.800000,0.600000,-1.000000,-0.149323,0.800462,0.599966,-1.000000
3.620000,0.242540,-1.138324,1.347786,-1.780284,0.212345,-1.153737,1.369576,-1.786737,-0.177325,0.800000,0.600000,-1.000000,-0.152116,0.800461,0.599965,-1.000000
3.630000,0.245756,-1.136344,1.344955,-1.779433,0.215686,-1.151997,1.367110,-1.786010,-0.180042,0.800000,0.600000,-1.000000,-0.154902,0.800460,0.599964,-1.000000
3.640000,0.248957,-1.134339,1.342086,-1.778569,0.219013,-1.150232,1.364605,-1.785270,-0.182749,0.800000,0.600000,-1.000000,-0.157679,0.800458,0.599963,-1.000000
3.650000,0.252141,-1.132312,1.339181,-1.777691,0.222326,-1.148440,1.362059,-1.784517,-0.185446,0.800000,0.600000,-1.000000,-0.160449,0.800457,0.599962,-1.000000
3.660000,0.255310,-1.130262,1.336240,-1.776800,0.225624,-1.146622,1.359474,-1.783749,-0.188134,0.800000,0.600000,-1.000000,-0.163211,0.800455,0.599961,-1.000000
3.670000,0.258461,-1.128190,1.333263,-1.775895,0.228908,-1.144779,1.356849,-1.782968,-0.190813,0.800000,0.600000,-1.000000,-0.165964,0.800454,0.599960,-1.000000
3.680000,0.261596,-1.126096,1.330251,-1.774977,0.232177,-1.142910,1.354186,-1.782173,-0.193481,0.800000,0.600000,-1.000000,-0.168708,0.800452,0.599959,-1.000000
3.690000,0.264715,-1.123980,1.327204,-1.774046,0.235431,-1.141017,1.351484,-1.781365,-0.196139,0.800000,0.600000,-1.000000,-0.171444,0.800451,0.599958,-1.000000
3.700000,0.267816,-1.121844,1.324123,-1.773102,0.238669,-1.139100,1.348745,-1.780543,-0.198787,0.800000,0.600000,-1.000000,-0.174171,0.800449,0.599956,-1.000000
3.710000,0.270900,-1.119687,1.321009,-1.772144,0.241892,-1.137159,1.345967,-1.779708,-0.201425,0.800000,0.600000,-1.000000,-0.176889,0.800447,0.599955,-1.000000
3.720000,0.273967,-1.117509,1.317860,-1.771173,0.245100,-1.135194,1.343153,-1.778859,-0.204052,0.800000,0.600000,-1.000000,-0.179598,0.800445,0.599954,-1.000000
3.730000,0.277016,-1.115312,1.314680,-1.770190,0.248291,-1.133206,1.340302,-1.777997,-0.206669,0.800000,0.600000,-1.000000,-0.182298,0.800443,0.599953,-1.000000
3.740000,0.280048,-1.113096,1.311467,-1.769193,0.251467,-1.131195,1.337414,-1.777122,-0.209275,0.800000,0.600000,-1.000000,-0.184988,0.800442,0.599952,-1.000000
3.750000,0.283062,-1.110861,1.308222,-1.768184,0.254627,-1.129161,1.334491,-1.776233,-0.211869,0.800000,0.600000,-1.000000,-0.187669,0.800440,0.599951,-1.000000
3.760000,0.286058,-1.108607,1.304946,-1.767161,0.257770,-1.127106,1.331532,-1.775331,-0.214453,0.800000,0.600000,-1.000000,-0.190340,0.800438,0.599950,-1.000000
3.770000,0.289036,-1.106336,1.301639,-1.766127,0.260896,-1.125029,1.328539,-1.774415,-0.217026,0.800000,0.600000,-1.000000,-0.193001,0.800436,0.599948,-1.000000
3.780000,0.291996,-1.104047,1.298302,-1.765079,0.264006,-1.122931,1.325511,-1.773487,-0.219587,0.800000,0.600000,-1.000000,-0.195652,0.800434,0.599947,-1.000000
3.790000,0.294938,-1.101740,1.294936,-1.764020,0.267100,-1.120812,1.322450,-1.772544,-0.222136,0.800000,0.600000,-1.000000,-0.198293,0.800432,0.599946,-1.000000
3.800000,0.297861,-1.099418,1.291541,-1.762947,0.270176,-1.118672,1.319356,-1.771588,-0.224674,0.800000,0.600000,-1.000000,-0.200924,0.800430,0.599946,-1.000000
3.810000,0.300765,-1.097079,1.288118,-1.761863,0.273235,-1.116513,1.316229,-1.770619,-0.227200,0.800000,0.600000,-1.000000,-0.203544,0.800429,0.599945,-1.000000
3.820000,0.303651,-1.094724,1.284667,-1.760766,0.276276,-1.114334,1.313070,-1.769638,-0.229714,0.800000,0.600000,-1.000000,-0.206154,0.800427,0.599944,-1.000000
3.830000,0.306517,-1.092355,1.281189,-1.759657,0.279300,-1.112136,1.309878,-1.768644,-0.232216,0.800000,0.600000,-1.000000,-0.208753,0.800425,0.599943,-1.000000
3.840000,0.309365,-1.089970,1.277684,-1.758537,0.282307,-1.109919,1.306655,-1.767637,-0.234705,0.800000,0.600000,-1.000000,-0.211341,0.800423,0.599942,-1.000000
3.850000,0.312193,-1.087571,1.274153,-1.757405,0.285295,-1.107685,1.303402,-1.766618,-0.237182,0.800000,0.600000,-1.000000,-0.213918,0.800421,0.599941,-1.000000
3.860000,0.315003,-1.085158,1.270597,-1.756261,0.288266,-1.105432,1.300117,-1.765587,-0.239647,0.800000,0.600000,-1.000000,-0.216484,0.800419,0.599940,-1.000000
3.870000,0.317792,-1.082731,1.267015,-1.755106,0.291219,-1.103162,1.296803,-1.764543,-0.242099,0.800000,0.600000,-1.000000,-0.219038,0.800416,0.599939,-1.000000
3.880000,0.320562,-1.080292,1.263410,-1.753940,0.294153,-1.100875,1.293460,-1.763487,-0.244537,0.800000,0.600000,-1.000000,-0.221581,0.800414,0.599938,-1.000000
3.890000,0.323313,-1.077840,1.259780,-1.752763,0.297069,-1.098571,1.290088,-1.762419,-0.246963,0.800000,0.600000,-1.000000,-0.224112,0.800412,0.599937,-1.000000
3.900000,0.326043,-1.075376,1.256128,-1.751575,0.299966,-1.096252,1.286688,-1.761339,-0.249376,0.800000,0.600000,-1.000000,-0.226631,0.800409,0.599936,-1.000000
3.910000,0.328754,-1.072900,1.252454,-1.750376,0.302845,-1.093917,1.283261,-1.760248,-0.251775,0.800000,0.600000,-1.000000,-0.229139,0.800407,0.599935,-1.000000
3.920000,0.331445,-1.070414,1.248758,-1.749167,0.305705,-1.091566,1.279806,-1.759144,-0.254161,0.800000,0.600000,-1.000000,-0.231634,0.800405,0.599934,-1.000000
3.930000,0.334115,-1.067917,1.245041,-1.747947,0.308546,-1.089201,1.276325,-1.758030,-0.256533,0.800000,0.600000,-1.000000,-0.234117,0.800402,0.599933,-1.000000
3.940000,0.336765,-1.065410,1.241303,-1.746717,0.311368,-1.086822,1.272819,-1.756903,-0.258891,0.800000,0.600000,-1.000000,-0.236588,0.800399,0.599932,-1.000000
3.950000,0.339395,-1.062893,1.237547,-1.745477,0.314171,-1.084429,1.269287,-1.755766,-0.261235,0.800000,0.600000,-1.000000,-0.239046,0.800397,0.599931,-1.000000
3.960000,0.342005,-1.060368,1.233771,-1.744228,0.316954,-1.082023,1.265731,-1.754617,-0.263566,0.800000,0.600000,-1.000000,-0.241491,0.800394,0.599930,-1.000000
3.970000,0.344593,-1.057833,1.229977,-1.742968,0.319718,-1.079604,1.262152,-1.753456,-0.265882,0.800000,0.600000,-1.000000,-0.243923,0.800392,0.599929,-1.000000
3.980000,0.347161,-1.055292,1.226167,-1.741699,0.322462,-1.077173,1.258550,-1.752284,-0.268183,0.800000,0.600000,-1.000000,-0.246343,0.800390,0.599929,-1.000000
3.990000,0.349709,-1.052742,1.222339,-1.740421,0.325187,-1.074730,1.254925,-1.751102,-0.270470,0.800000,0.600000,-1.000000,-0.248749,0.800387,0.599928,-1.000000
4.000000,0.352235,-1.050186,1.218496,-1.739134,0.327892,-1.072276,1.251279,-1.749909,-0.272743,0.800000,0.600000,-1.000000,-0.251142,0.800385,0.599927,-1.000000
4.010000,0.354740,-1.047623,1.214638,-1.737838,0.330577,-1.069810,1.247611,-1.748706,-0.275000,0.800000,0.600000,-1.000000,-0.253522,0.800382,0.599927,-1.000000
4.020000,0.357225,-1.045055,1.210765,-1.736534,0.333241,-1.067335,1.243922,-1.747493,-0.277242,0.800000,0.600000,-1.000000,-0.255888,0.800379,0.599926,-1.000000
4.030000,0.359688,-1.042481,1.206878,-1.735221,0.335886,-1.064849,1.240214,-1.746270,-0.279470,0.800000,0.600000,-1.000000,-0.258240,0.800377,0.599925,-1.000000
4.040000,0.362129,-1.039902,1.202978,-1.733900,0.338510,-1.062355,1.236486,-1.745038,-0.281682,0.800000,0.600000,-1.000000,-0.260578,0.800374,0.599925,-1.000000
4.050000,0.364550,-1.037318,1.199067,-1.732572,0.341114,-1.059851,1.232740,-1.743796,-0.283878,0.800000,0.600000,-1.000000,-0.262902,0.800371,0.599924,-1.000000
4.060000,0.366949,-1.034731,1.195144,-1.731236,0.343698,-1.057339,1.228976,-1.742544,-0.286059,0.800000,0.600000,-1.000000,-0.265212,0.800368,0.599923,-1.000000
4.070000,0.369326,-1.032141,1.191210,-1.729894,0.346261,-1.054819,1.225195,-1.741284,-0.288225,0.800000,0.600000,-1.000000,-0.267507,0.800365,0.599923,-1.000000
4.080000,0.371682,-1.029547,1.187267,-1.728544,0.348803,-1.052292,1.221398,-1.740015,-0.290374,0.800000,0.600000,-1.000000,-0.269788,0.800362,0.599922,-1.000000
4.090000,0.374016,-1.026952,1.183315,-1.727187,0.351324,-1.049758,1.217585,-1.738737,-0.292507,0.800000,0.600000,-1.000000,-0.272054,0.800359,0.599921,-1.000000
4.100000,0.376328,-1.024355,1.179354,-1.725824,0.353824,-1.047218,1.213757,-1.737450,-0.294624,0.800000,0.600000,-1.000000,-0.274306,0.800356,0.599920,-1.000000
4.110000,0.378618,-1.021757,1.175387,-1.724455,0.356304,-1.044672,1.209915,-1.736156,-0.296725,0.800000,0.600000,-1.000000,-0.276542,0.800353,0.599920,-1.000000
4.120000,0.380887,-1.019158,1.171414,-1.723081,0.358762,-1.042120,1.206061,-1.734852,-0.298809,0.800000,0.600000,-1.000000,-0.278764,0.800350,0.599920,-1.000000
4.130000,0.383133,-1.016560,1.167435,-1.721700,0.361199,-1.039564,1.202195,-1.733541,-0.300877,0.800000,0.600000,-1.000000,-0.280970,0.800347,0.599919,-1.000000
4.140000,0.385357,-1.013963,1.163452,-1.720314,0.363615,-1.037004,1.198316,-1.732222,-0.302928,0.800000,0.600000,-1.000000,-0.283160,0.800344,0.599919,-1.000000
4.150000,0.387559,-1.011367,1.159466,-1.718924,0.366009,-1.034440,1.194427,-1.730897,-0.304961,0.800000,0.600000,-1.000000,-0.285336,0.800341,0.599919,-1.000000
4.160000,0.389739,-1.008772,1.155476,-1.717529,0.368382,-1.031874,1.190528,-1.729564,-0.306978,0.800000,0.600000,-1.000000,-0.287495,0.800338,0.599918,-1.000000
4.170000,0.391896,-1.006180,1.151485,-1.716130,0.370734,-1.029304,1.186620,-1.728225,-0.308978,0.800000,0.600000,-1.000000,-0.289638,0.800335,0.599918,-1.000000
4.180000,0.394030,-1.003591,1.147493,-1.714727,0.373063,-1.026733,1.182703,-1.726879,-0.310960,0.800000,0.600000,-1.000000,-0.291766,0.800332,0.599918,-1.000000
4.190000,0.396143,-1.001005,1.143501,-1.713321,0.375371,-1.024160,1.178778,-1.725528,-0.312924,0.800000,0.600000,-1.000000,-0.293877,0.800328,0.599917,-1.000000
4.200000,0.398232,-0.998424,1.139510,-1.711911,0.377657,-1.021586,1.174846,-1.724171,-0.314871,0.800000,0.600000,-1.000000,-0.295972,0.800325,0.599917,-1.000000
4.210000,0.400299,-0.995847,1.135521,-1.710499,0.379922,-1.019013,1.170909,-1.722808,-0.316800,0.800000,0.600000,-1.000000,-0.298050,0.800322,0.599917,-1.000000
4.220000,0.402343,-0.993276,1.131535,-1.709084,0.382164,-1.016439,1.166967,-1.721441,-0.318711,0.800000,0.600000,-1.000000,-0.300112,0.800318,0.599916,-1.000000
4.230000,0.404365,-0.990710,1.127552,-1.707668,0.384384,-1.013866,1.163020,-1.720068,-0.320604,0.800000,0.600000,-1.000000,-0.302157,0.800315,0.599916,-1.000000
4.240000,0.406363,-0.988151,1.123575,-1.706250,0.386582,-1.011294,1.159072,-1.718690,-0.322478,0.800000,0.600000,-1.000000,-0.304185,0.800311,0.599916,-1.000000
4.250000,0.408339,-0.985600,1.119604,-1.704830,0.388757,-1.008725,1.155121,-1.717308,-0.324334,0.800000,0.600000,-1.000000,-0.306196,0.800308,0.599916,-1.000000
4.260000,0.410291,-0.983056,1.115640,-1.703409,0.390911,-1.006158,1.151169,-1.715922,-0.326172,0.800000,0.600000,-1.000000,-0.308190,0.800305,0.599916,-1.000000
4.270000,0.412221,-0.980521,1.111685,-1.701989,0.393042,-1.003594,1.147216,-1.714533,-0.327991,0.800000,0.600000,-1.000000,-0.310166,0.800301,0.599916,-1.000000
4.280000,0.414127,-0.977995,1.107738,-1.700568,0.395150,-1.001034,1.143264,-1.713140,-0.329790,0.800000,0.600000,-1.000000,-0.312125,0.800298,0.599916,-1.000000
4.290000,0.416010,-0.975478,1.103801,-1.699147,0.397236,-0.998479,1.139313,-1.711745,-0.331571,0.800000,0.600000,-1.000000,-0.314066,0.800294,0.599916,-1.000000
4.300000,0.417869,-0.972972,1.099875,-1.697728,0.399300,-0.995928,1.135365,-1.710347,-0.333333,0.800000,0.600000,-1.000000,-0.315989,0.800291,0.599916,-1.000000
4.310000,0.419706,-0.970477,1.095962,-1.696310,0.401340,-0.993383,1.131420,-1.708948,-0.335075,0.800000,0.600000,-1.000000,-0.317894,0.800287,0.599916,-1.000000
4.320000,0.421519,-0.967993,1.092061,-1.694893,0.403358,-0.990844,1.127479,-1.707547,-0.336798,0.800000,0.600000,-1.000000,-0.319781,0.800283,0.599916,-1.000000
4.330000,0.423308,-0.965522,1.088175,-1.693479,0.405353,-0.988312,1.123544,-1.706145,-0.338501,0.800000,0.600000,-1.000000,-0.321650,0.800279,0.599917,-1.000000
4.340000,0.425074,-0.963063,1.084305,-1.692067,0.407325,-0.985787,1.119615,-1.704741,-0.340184,0.800000,0.600000,-1.000000,-0.323500,0.800276,0.599917,-1.000000
4.350000,0.426816,-0.960618,1.080451,-1.690659,0.409274,-0.983270,1.115695,-1.703337,-0.341847,0.800000,0.600000,-1.000000,-0.325332,0.800272,0.599917,-1.000000
4.360000,0.428535,-0.958188,1.076616,-1.689253,0.411200,-0.980762,1.111783,-1.701932,-0.343491,0.800000,0.600000,-1.000000,-0.327145,0.800268,0.599917,-1.000000
4.370000,0.430229,-0.955773,1.072800,-1.687852,0.413103,-0.978263,1.107880,-1.700528,-0.345114,0.800000,0.600000,-1.000000,-0.328939,0.800265,0.599918,-1.000000
4.380000,0.431900,-0.953373,1.069003,-1.686455,0.414983,-0.975774,1.103988,-1.699124,-0.346716,0.800000,0.600000,-1.000000,-0.330715,0.800261,0.599918,-1.000000
4.390000,0.433547,-0.950989,1.065228,-1.685064,0.416839,-0.973295,1.100108,-1.697722,-0.348298,0.800000,0.600000,-1.000000,-0.332470,0.800257,0.599919,-1.000000
4.400000,0.435170,-0.948622,1.061475,-1.683678,0.418672,-0.970828,1.096240,-1.696322,-0.349860,0.800000,0.600000,-1.000000,-0.334207,0.800253,0.599919,-1.000000
4.410000,0.436770,-0.946273,1.057746,-1.682298,0.420482,-0.968373,1.092386,-1.694923,-0.351400,0.800000,0.600000,-1.000000,-0.335924,0.800249,0.599919,-1.000000
4.420000,0.438345,-0.943942,1.054042,-1.680924,0.422268,-0.965930,1.088547,-1.693527,-0.352919,0.800000,0.600000,-1.000000,-0.337621,0.800245,0.599920,-1.000000
4.430000,0.439895,-0.941630,1.050363,-1.679558,0.424031,-0.963500,1.084723,-1.692135,-0.354418,0.800000,0.600000,-1.000000,-0.339298,0.800241,0.599920,-1.000000
4.440000,0.441422,-0.939338,1.046712,-1.678199,0.425770,-0.961083,1.080917,-1.690745,-0.355895,0.800000,0.600000,-1.000000,-0.340956,0.800237,0.599920,-1.000000
4.450000,0.442924,-0.937066,1.043089,-1.676848,0.427486,-0.958682,1.077129,-1.689360,-0.357350,0.800000,0.600000,-1.000000,-0.342593,0.800233,0.599921,-1.000000
4.460000,0.444403,-0.934815,1.039496,-1.675506,0.429177,-0.956295,1.073362,-1.687978,-0.358784,0.800000,0.600000,-1.000000,-0.344211,0.800229,0.599921,-1.000000
4.470000,0.445856,-0.932587,1.035934,-1.674173,0.430845,-0.953924,1.069615,-1.686601,-0.360197,0.800000,0.600000,-1.000000,-0.345807,0.800225,0.599922,-1.000000
4.480000,0.447285,-0.930381,1.032405,-1.672849,0.432489,-0.951570,1.065889,-1.685229,-0.361587,0.800000,0.600000,-1.000000,-0.347384,0.800221,0.599923,-1.000000
4.490000,0.448690,-0.928198,1.028909,-1.671536,0.434109,-0.949233,1.062187,-1.683864,-0.362955,0.800000,0.600000,-1.000000,-0.348939,0.800217,0.599924,-1.000000
4.500000,0.450070,-0.926039,1.025448,-1.670234,0.435705,-0.946913,1.058508,-1.682504,-0.364301,0.800000,0.600000,-1.000000,-0.350474,0.800213,0.599924,-1.000000
4.510000,0.451425,-0.923904,1.022022,-1.668943,0.437277,-0.944612,1.054855,-1.681152,-0.365625,0.800000,0.600000,-1.000000,-0.351987,0.800209,0.599925,-1.000000
4.520000,0.452756,-0.921795,1.018634,-1.667664,0.438825,-0.942331,1.051228,-1.679807,-0.366926,0.800000,0.600000,-1.000000,-0.353480,0.800205,0.599926,-1.000000
4.530000,0.454062,-0.919712,1.015285,-1.666397,0.440349,-0.940069,1.047629,-1.678470,-0.368205,0.800000,0.600000,-1.000000,-0.354951,0.800200,0.599926,-1.000000
4.540000,0.455343,-0.917656,1.011975,-1.665144,0.441848,-0.937827,1.044059,-1.677142,-0.369461,0.800000,0.600000,-1.000000,-0.356400,0.800196,0.599927,-1.000000
4.550000,0.456599,-0.915627,1.008707,-1.663904,0.443323,-0.935607,1.040518,-1.675822,-0.370693,0.800000,0.600000,-1.000000,-0.357828,0.800192,0.599928,-1.000000
4.560000,0.457830,-0.913627,1.005481,-1.662679,0.444774,-0.933409,1.037009,-1.674512,-0.371903,0.800000,0.600000,-1.000000,-0.359234,0.800188,0.599928,-1.000000
4.570000,0.459036,-0.911655,1.002298,-1.661468,0.446200,-0.931234,1.033534,-1.673211,-0.373090,0.800000,0.600000,-1.000000,-0.360619,0.800183,0.599929,-1.000000
4.580000,0.460217,-0.909714,0.999162,-1.660273,0.447602,-0.929082,1.030092,-1.671920,-0.374253,0.800000,0.600000,-1.000000,-0.361981,0.800179,0.599930,-1.000000
4.590000,0.461373,-0.907803,0.996072,-1.659093,0.448979,-0.926954,1.026686,-1.670641,-0.375392,0.800000,0.600000,-1.000000,-0.363321,0.800175,0.599931,-1.000000
4.600000,0.462503,-0.905924,0.993029,-1.657930,0.450331,-0.924851,1.023316,-1.669373,-0.376508,0.800000,0.600000,-1.000000,-0.364639,0.800171,0.599932,-1.000000
4.610000,0.463608,-0.904076,0.990036,-1.656784,0.451659,-0.922774,1.019983,-1.668118,-0.377600,0.800000,0.600000,-1.000000,-0.365934,0.800167,0.599933,-1.000000
4.620000,0.464687,-0.902261,0.987093,-1.655656,0.452962,-0.920722,1.016689,-1.666875,-0.378668,0.800000,0.600000,-1.000000,-0.367207,0.800162,0.599934,-1.000000
4.630000,0.465741,-0.900479,0.984201,-1.654547,0.454240,-0.918698,1.013436,-1.665646,-0.379712,0.800000,0.600000,-1.000000,-0.368456,0.800158,0.599935,-1.000000
4.640000,0.466770,-0.898731,0.981363,-1.653456,0.455493,-0.916701,1.010223,-1.664431,-0.380731,0.800000,0.600000,-1.000000,-0.369683,0.800154,0.599936,-1.000000
4.650000,0.467773,-0.897018,0.978579,-1.652385,0.456721,-0.914733,1.007054,-1.663230,-0.381726,0.800000,0.600000,-1.000000,-0.370886,0.800149,0.599937,-1.000000
4.660000,0.468750,-0.895341,0.975850,-1.651334,0.457924,-0.912794,1.003928,-1.662044,-0.382697,0.800000,0.600000,-1.000000,-0.372067,0.800145,0.599938,-1.000000
4.670000,0.469701,-0.893700,0.973179,-1.650304,0.459101,-0.910884,1.000848,-1.660874,-0.383643,0.800000,0.600000,-1.000000,-0.373223,0.800141,0.599939,-1.000000
4.680000,0.470626,-0.892096,0.970566,-1.649295,0.460254,-0.909006,0.997814,-1.659720,-0.384563,0.800000,0.600000,-1.000000,-0.374357,0.800136,0.599940,-1.000000
4.690000,0.471525,-0.890530,0.968012,-1.648308,0.461381,-0.907158,0.994828,-1.658583,-0.385459,0.800000,0.600000,-1.000000,-0.375466,0.800132,0.599941,-1.000000
4.700000,0.472399,-0.889002,0.965519,-1.647343,0.462483,-0.905342,0.991892,-1.657463,-0.386330,0.800000,0.600000,-1.000000,-0.376552,0.800127,0.599942,-1.000000
4.710000,0.473246,-0.887513,0.963089,-1.646402,0.463559,-0.903559,0.989006,-1.656361,-0.387175,0.800000,0.600000,-1.000000,-0.377613,0.800123,0.599942,-1.000000
4.720000,0.474066,-0.886064,0.960722,-1.645484,0.464610,-0.901810,0.986171,-1.655278,-0.387995,0.800000,0.600000,-1.000000,-0.378650,0.800119,0.599943,-1.000000
4.730000,0.474861,-0.884656,0.958419,-1.644590,0.465635,-0.900094,0.983390,-1.654213,-0.388789,0.800000,0.600000,-1.000000,-0.379664,0.800114,0.599944,-1.000000
4.740000,0.475629,-0.883289,0.956183,-1.643721,0.466634,-0.898414,0.980663,-1.653168,-0.389557,0.800000,0.600000,-1.000000,-0.380652,0.800110,0.599945,-1.000000
4.750000,0.476371,-0.881963,0.954014,-1.642878,0.467608,-0.896769,0.977992,-1.652144,-0.390299,0.800000,0.600000,-1.000000,-0.381616,0.800105,0.599946,-1.000000
4.760000,0.477085,-0.880681,0.951914,-1.642060,0.468556,-0.895160,0.975378,-1.651140,-0.391016,0.800000,0.600000,-1.000000,-0.382555,0.800101,0.599947,-1.000000
4.770000,0.477774,-0.879442,0.949883,-1.641269,0.469477,-0.893588,0.972822,-1.650157,-0.391706,0.800000,0.600000,-1.000000,-0.383469,0.800097,0.599948,-1.000000
4.780000,0.478435,-0.878246,0.947923,-1.640505,0.470373,-0.892054,0.970326,-1.649197,-0.392369,0.800000,0.600000,-1.000000,-0.384359,0.800092,0.599949,-1.000000
4.790000,0.479070,-0.877096,0.946036,-1.639768,0.471243,-0.890558,0.967890,-1.648258,-0.393006,0.800000,0.600000,-1.000000,-0.385223,0.800088,0.599949,-1.000000
4.800000,0.479677,-0.875990,0.944221,-1.639060,0.472086,-0.889101,0.965516,-1.647343,-0.393617,0.800000,0.600000,-1.000000,-0.386061,0.800084,0.599950,-1.000000
4.810000,0.480258,-0.874931,0.942482,-1.638380,0.472903,-0.887684,0.963206,-1.646452,-0.394200,0.800000,0.600000,-1.000000,-0.386874,0.800079,0.599951,-1.000000
4.820000,0.480811,-0.873918,0.940817,-1.637729,0.473694,-0.886308,0.960960,-1.645584,-0.394756,0.800000,0.600000,-1.000000,-0.387661,0.800075,0.599952,-1.000000
4.830000,0.481337,-0.872952,0.939230,-1.637108,0.474459,-0.884972,0.958780,-1.644741,-0.395286,0.800000,0.600000,-1.000000,-0.388423,0.800071,0.599953,-1.000000
4.840000,0.481836,-0.872034,0.937720,-1.636517,0.475196,-0.883678,0.956666,-1.643924,-0.395788,0.800000,0.600000,-1.000000,-0.389159,0.800067,0.599954,-1.000000
4.850000,0.482307,-0.871164,0.936290,-1.635957,0.475907,-0.882427,0.954621,-1.643132,-0.396262,0.800000,0.600000,-1.000000,-0.389868,0.800063,0.599955,-1.000000
4.860000,0.482751,-0.870344,0.934939,-1.635427,0.476592,-0.881219,0.952646,-1.642367,-0.396709,0.800000,0.600000,-1.000000,-0.390551,0.800059,0.599955,-1.000000
4.870000,0.483167,-0.869572,0.933669,-1.634929,0.477249,-0.880054,0.950740,-1.641628,-0.397129,0.800000,0.600000,-1.000000,-0.391208,0.800055,0.599956,-1.000000
4.880000,0.483555,-0.868851,0.932482,-1.634463,0.477880,-0.878934,0.948907,-1.640917,-0.397520,0.800000,0.600000,-1.000000,-0.391838,0.800051,0.599957,-1.000000
4.890000,0.483915,-0.868180,0.931377,-1.634029,0.478483,-0.877858,0.947146,-1.640233,-0.397883,0.800000,0.600000,-1.000000,-0.392442,0.800047,0.599958,-1.000000
4.900000,0.484247,-0.867561,0.930356,-1.633629,0.479060,-0.876829,0.945459,-1.639578,-0.398218,0.800000,0.600000,-1.000000,-0.393018,0.800043,0.599959,-1.000000
4.910000,0.484551,-0.866993,0.929420,-1.633261,0.479609,-0.875845,0.943847,-1.638951,-0.398525,0.800000,0.600000,-1.000000,-0.393568,0.800040,0.599959,-1.000000
4.920000,0.484826,-0.866477,0.928569,-1.632927,0.480130,-0.874908,0.942311,-1.638354,-0.398803,0.800000,0.600000,-1.000000,-0.394090,0.800036,0.599960,-1.000000
4.930000,0.485073,-0.866013,0.927805,-1.632627,0.480625,-0.874019,0.940853,-1.637787,-0.399053,0.800000,0.600000,-1.000000,-0.394586,0.800032,0.599961,-1.000000
4.940000,0.485292,-0.865603,0.927128,-1.632361,0.481091,-0.873177,0.939472,-1.637249,-0.399274,0.800000,0.600000,-1.000000,-0.395053,0.800029,0.599962,-1.000000
4.950000,0.485481,-0.865246,0.926540,-1.632129,0.481530,-0.872384,0.938170,-1.636743,-0.399465,0.800000,0.600000,-1.000000,-0.395493,0.800026,0.599962,-1.000000
4.960000,0.485642,-0.864943,0.926040,-1.631933,0.481942,-0.871640,0.936949,-1.636267,-0.399628,0.800000,0.600000,-1.000000,-0.395906,0.800022,0.599963,-1.000000
4.970000,0.485774,-0.864694,0.925629,-1.631771,0.482325,-0.870945,0.935809,-1.635823,-0.399762,0.800000,0.600000,-1.000000,-0.396290,0.800019,0.599964,-1.000000
4.980000,0.485877,-0.864500,0.925309,-1.631646,0.482680,-0.870301,0.934750,-1.635411,-0.399866,0.800000,0.600000,-1.000000,-0.396647,0.800016,0.599964,-1.000000
4.990000,0.485951,-0.864361,0.925079,-1.631556,0.483007,-0.869707,0.933774,-1.635031,-0.399940,0.800000,0.600000,-1.000000,-0.396975,0.800013,0.599965,-1.000000
5.000000,0.485995,-0.864277,0.924940,-1.631501,0.483306,-0.869164,0.932882,-1.634683,-0.399985,0.800000,0.600000,-1.000000,-0.397275,0.800010,0.599966,-1.000000
5.010000,0.486014,-0.864243,0.924893,-1.631531,0.483577,-0.868672,0.932075,-1.634374,-0.400000,0.800000,0.600000,-1.000000,-0.397546,0.800007,0.599967,-1.000000
5.020000,0.485954,-0.864329,0.925233,-1.631787,0.483814,-0.868238,0.931382,-1.634120,-0.399940,0.800000,0.600060,-1.000000,-0.397784,0.800004,0.599973,-1.000000
5.030000,0.485776,-0.864606,0.926279,-1.632559,0.484011,-0.867874,0.930863,-1.633970,-0.399762,0.800000,0.600237,-1.000000,-0.397980,0.800001,0.599997,-1.000000
5.040000,0.485482,-0.865072,0.928023,-1.633840,0.484158,-0.867594,0.930570,-1.633963,-0.399465,0.800000,0.600529,-1.000000,-0.398128,0.799998,0.600048,-1.000000
5.050000,0.485074,-0.865725,0.930452,-1.635618,0.484249,-0.867407,0.930549,-1.634134,-0.399053,0.800000,0.600934,-1.000000,-0.398219,0.799996,0.600134,-1.000000
5.060000,0.484551,-0.866563,0.933554,-1.637886,0.484279,-0.867323,0.930840,-1.634515,-0.398525,0.800000,0.601450,-1.000000,-0.398248,0.799994,0.600262,-1.000000
5.070000,0.483915,-0.867581,0.937315,-1.640631,0.484243,-0.867349,0.931479,-1.635132,-0.397883,0.800000,0.602074,-1.000000,-0.398210,0.799992,0.600441,-1.000000
5.080000,0.483167,-0.868766,0.941706,-1.643788,0.484135,-0.867490,0.932492,-1.636004,-0.397129,0.800000,0.602803,-1.000000,-0.398101,0.799991,0.600674,-1.000000
5.090000,0.482307,-0.870090,0.946669,-1.647427,0.483953,-0.867750,0.933901,-1.637152,-0.396262,0.800000,0.603635,-1.000000,-0.397917,0.799992,0.600968,-1.000000
5.100000,0.481337,-0.871560,0.952209,-1.651497,0.483691,-0.868131,0.935723,-1.638592,-0.395286,0.800000,0.604568,-1.000000,-0.397654,0.799993,0.601325,-1.000000
5.110000,0.480258,-0.873166,0.958303,-1.655984,0.483348,-0.868635,0.937972,-1.640337,-0.394200,0.800000,0.605600,-1.000000,-0.397309,0.799996,0.601750,-1.000000
5.120000,0.479070,-0.874900,0.964926,-1.660874,0.482920,-0.869261,0.940658,-1.642396,-0.393006,0.800000,0.606728,-1.000000,-0.396880,0.800000,0.602245,-1.000000
5.130000,0.477774,-0.876750,0.972055,-1.666152,0.482405,-0.870010,0.943789,-1.644778,-0.391706,0.800000,0.607949,-1.000000,-0.396365,0.800006,0.602813,-1.000000
5.140000,0.476371,-0.878707,0.979664,-1.671804,0.481802,-0.870880,0.947368,-1.647486,-0.390299,0.800000,0.609261,-1.000000,-0.395761,0.800015,0.603455,-1.000000
5.150000,0.474861,-0.880759,0.987727,-1.677814,0.481108,-0.871868,0.951396,-1.650524,-0.388789,0.800000,0.610662,-1.000000,-0.395068,0.800026,0.604174,-1.000000
5.160000,0.473246,-0.882896,0.996220,-1.684170,0.480321,-0.872971,0.955870,-1.653894,-0.387175,0.800000,0.612150,-1.000000,-0.394284,0.800039,0.604969,-1.000000
5.170000,0.471525,-0.885108,1.005118,-1.690856,0.479442,-0.874184,0.960787,-1.657596,-0.385459,0.800000,0.613722,-1.000000,-0.393408,0.800054,0.605842,-1.000000
5.180000,0.469701,-0.887382,1.014394,-1.697858,0.478468,-0.875504,0.966140,-1.661627,-0.383643,0.800000,0.615375,-1.000000,-0.392440,0.800073,0.606794,-1.000000
5.190000,0.467773,-0.889709,1.024025,-1.705162,0.477398,-0.876925,0.971921,-1.665985,-0.381726,0.800000,0.617107,-1.000000,-0.391378,0.800094,0.607823,-1.000000
5.200000,0.465741,-0.892077,1.033986,-1.712753,0.476232,-0.878440,0.978120,-1.670667,-0.379712,0.800000,0.618916,-1.000000,-0.390222,0.800118,0.608931,-1.000000
5.210000,0.463608,-0.894477,1.044253,-1.720620,0.474970,-0.880044,0.984727,-1.675667,-0.377600,0.800000,0.620800,-1.000000,-0.388972,0.800145,0.610118,-1.000000
5.220000,0.461372,-0.896898,1.054802,-1.728747,0.473610,-0.881729,0.991728,-1.680980,-0.375392,0.800000,0.622756,-1.000000,-0.387628,0.800174,0.611381,-1.000000
5.230000,0.459036,-0.899330,1.065610,-1.737123,0.472153,-0.883489,0.999110,-1.686598,-0.373090,0.800000,0.624781,-1.000000,-0.386190,0.800207,0.612722,-1.000000
5.240000,0.456599,-0.901762,1.076651,-1.745733,0.470597,-0.885316,1.006858,-1.692516,-0.370693,0.800000,0.626873,-1.000000,-0.384658,0.800242,0.614138,-1.000000
5.250000,0.454062,-0.904197,1.087924,-1.754572,0.468944,-0.887204,1.014959,-1.698726,-0.368205,0.800000,0.629030,-1.000000,-0.383031,0.800279,0.615629,-1.000000
5.260000,0.451425,-0.906607,1.099382,-1.763596,0.467192,-0.889145,1.023396,-1.705217,-0.365625,0.800000,0.631250,-1.000000,-0.381311,0.800319,0.617195,-1.000000
5.270000,0.448690,-0.908987,1.111006,-1.772839,0.465342,-0.891129,1.032152,-1.711983,-0.362955,0.800000,0.633530,-1.000000,-0.379498,0.800362,0.618832,-1.000000
5.280000,0.445856,-0.911333,1.122783,-1.782270,0.463393,-0.893149,1.041210,-1.719015,-0.360197,0.800000,0.635867,-1.000000,-0.377591,0.800407,0.620541,-1.000000
5.290000,0.442924,-0.913637,1.134694,-1.791878,0.461346,-0.895198,1.050554,-1.726304,-0.357350,0.800000,0.638259,-1.000000,-0.375592,0.800454,0.622320,-1.000000
5.300000,0.439895,-0.915889,1.146720,-1.801650,0.459201,-0.897267,1.060166,-1.733843,-0.354418,0.800000,0.640704,-1.000000,-0.373501,0.800502,0.624166,-1.000000
5.310000,0.436770,-0.918084,1.158842,-1.811578,0.456958,-0.899349,1.070028,-1.741621,-0.351400,0.800000,0.643200,-1.000000,-0.371318,0.800553,0.626079,-1.000000
5.320000,0.433547,-0.920213,1.171044,-1.821651,0.454617,-0.901435,1.080125,-1.749627,-0.348298,0.800000,0.645744,-1.000000,-0.369044,0.800605,0.628057,-1.000000
5.330000,0.430229,-0.922270,1.183309,-1.831858,0.452178,-0.903519,1.090439,-1.757854,-0.345114,0.800000,0.648333,-1.000000,-0.366680,0.800658,0.630097,-1.000000
5.340000,0.426816,-0.924250,1.195621,-1.842190,0.449642,-0.905592,1.100952,-1.766292,-0.341847,0.800000,0.650965,-1.000000,-0.364227,0.800712,0.632199,-1.000000
5.350000,0.423308,-0.926144,1.207963,-1.852638,0.447009,-0.907647,1.111649,-1.774930,-0.338501,0.800000,0.653638,-1.000000,-0.361685,0.800767,0.634360,-1.000000
5.360000,0.419706,-0.927949,1.220322,-1.863192,0.444278,-0.909677,1.122512,-1.783760,-0.335075,0.800000,0.656350,-1.000000,-0.359056,0.800824,0.636578,-1.000000
5.370000,0.416010,-0.929659,1.232683,-1.873842,0.441451,-0.911675,1.133525,-1.792772,-0.331571,0.800000,0.659098,-1.000000,-0.356339,0.800881,0.638851,-1.000000
5.380000,0.412221,-0.931268,1.245031,-1.884581,0.438528,-0.913635,1.144670,-1.801957,-0.327991,0.800000,0.661879,-1.000000,-0.353537,0.800938,0.641177,-1.000000
5.390000,0.408339,-0.932773,1.257354,-1.895399,0.435509,-0.915548,1.155934,-1.811305,-0.324334,0.800000,0.664691,-1.000000,-0.350649,0.800995,0.643554,-1.000000
5.400000,0.404365,-0.934168,1.269638,-1.906288,0.432395,-0.917410,1.167300,-1.820808,-0.320604,0.800000,0.667532,-1.000000,-0.347677,0.801053,0.645980,-1.000000
5.410000,0.400299,-0.935451,1.281873,-1.917239,0.429185,-0.919215,1.178753,-1.830454,-0.316800,0.800000,0.670400,-1.000000,-0.344622,0.801111,0.648453,-1.000000
5.420000,0.396143,-0.936618,1.294045,-1.928244,0.425881,-0.920955,1.190278,-1.840238,-0.312924,0.800000,0.673292,-1.000000,-0.341485,0.801169,0.650970,-1.000000
5.430000,0.391896,-0.937665,1.306143,-1.939294,0.422483,-0.922626,1.201860,-1.850147,-0.308978,0.800000,0.676205,-1.000000,-0.338266,0.801226,0.653529,-1.000000
5.440000,0.387559,-0.938590,1.318156,-1.950383,0.418990,-0.924222,1.213485,-1.860175,-0.304961,0.800000,0.679137,-1.000000,-0.334967,0.801283,0.656128,-1.000000
5.450000,0.383133,-0.939391,1.330075,-1.961500,0.415404,-0.925739,1.225140,-1.870311,-0.300877,0.800000,0.682086,-1.000000,-0.331589,0.801340,0.658765,-1.000000
5.460000,0.378619,-0.940065,1.341889,-1.972640,0.411726,-0.927172,1.236812,-1.880547,-0.296725,0.800000,0.685050,-1.000000,-0.328133,0.801396,0.661437,-1.000000
5.470000,0.374016,-0.940611,1.353588,-1.983793,0.407955,-0.928516,1.248485,-1.890876,-0.292507,0.800000,0.688026,-1.000000,-0.324600,0.801451,0.664142,-1.000000
5.480000,0.369326,-0.941028,1.365164,-1.994952,0.404092,-0.929767,1.260149,-1.901287,-0.288225,0.800000,0.691011,-1.000000,-0.320992,0.801505,0.666877,-1.000000
5.490000,0.364550,-0.941313,1.376607,-2.006109,0.400138,-0.930922,1.271791,-1.911773,-0.283878,0.800000,0.694003,-1.000000,-0.317308,0.801558,0.669641,-1.000000
5.500000,0.359688,-0.941468,1.387909,-2.017257,0.396093,-0.931976,1.283400,-1.922324,-0.279470,0.800000,0.697000,-1.000000,-0.313551,0.801610,0.672430,-1.000000
5.510000,0.354740,-0.941491,1.399063,-2.028387,0.391958,-0.932928,1.294963,-1.932934,-0.275000,0.800000,0.700000,-1.000000,-0.309721,0.801661,0.675243,-1.000000
5.520000,0.349709,-0.941384,1.410060,-2.039491,0.387733,-0.933773,1.306469,-1.943593,-0.270470,0.800000,0.703000,-1.000000,-0.305820,0.801710,0.678077,-1.000000
5.530000,0.344593,-0.941145,1.420893,-2.050563,0.383419,-0.934511,1.317908,-1.954294,-0.265882,0.800000,0.705997,-1.000000,-0.301849,0.801758,0.680930,-1.000000
5.540000,0.339395,-0.940776,1.431556,-2.061594,0.379016,-0.935137,1.329270,-1.965027,-0.261235,0.800000,0.708989,-1.000000,-0.297809,0.801805,0.683798,-1.000000
5.550000,0.334115,-0.940279,1.442042,-2.072576,0.374526,-0.935651,1.340544,-1.975785,-0.256533,0.800000,0.711974,-1.000000,-0.293701,0.801851,0.686680,-1.000000
5.560000,0.328754,-0.939655,1.452344,-2.083502,0.369949,-0.936052,1.351721,-1.986559,-0.251775,0.800000,0.714950,-1.000000,-0.289527,0.801895,0.689574,-1.000000
5.570000,0.323313,-0.938906,1.462457,-2.094364,0.365285,-0.936337,1.362791,-1.997343,-0.246963,0.800000,0.717914,-1.000000,-0.285287,0.801937,0.692476,-1.000000
5.580000,0.317792,-0.938034,1.472375,-2.105154,0.360536,-0.936507,1.373747,-2.008128,-0.242099,0.800000,0.720863,-1.000000,-0.280983,0.801977,0.695384,-1.000000
5.590000,0.312193,-0.937042,1.482093,-2.115863,0.355702,-0.936560,1.384578,-2.018904,-0.237182,0.800000,0.723795,-1.000000,-0.276616,0.802016,0.698297,-1.000000
5.600000,0.306517,-0.935933,1.491606,-2.126485,0.350783,-0.936498,1.395279,-2.029665,-0.232216,0.800000,0.726708,-1.000000,-0.272188,0.802053,0.701210,-1.000000
5.610000,0.300765,-0.934711,1.500910,-2.137011,0.345782,-0.936319,1.405839,-2.040402,-0.227200,0.800000,0.729600,-1.000000,-0.267699,0.802089,0.704123,-1.000000
5.620000,0.294938,-0.933378,1.510000,-2.147432,0.340697,-0.936025,1.416252,-2.051108,-0.222136,0.800000,0.732468,-1.000000,-0.263150,0.802122,0.707032,-1.000000
5.630000,0.289037,-0.931940,1.518872,-2.157742,0.335531,-0.935616,1.426511,-2.061775,-0.217026,0.800000,0.735309,-1.000000,-0.258543,0.802154,0.709935,-1.000000
5.640000,0.283062,-0.930401,1.527522,-2.167932,0.330284,-0.935095,1.436610,-2.072394,-0.211869,0.800000,0.738121,-1.000000,-0.253880,0.802184,0.712830,-1.000000
5.650000,0.277016,-0.928765,1.535949,-2.177994,0.324957,-0.934462,1.446541,-2.082956,-0.206669,0.800000,0.740902,-1.000000,-0.249161,0.802213,0.715713,-1.000000
5.660000,0.270900,-0.927038,1.544148,-2.187919,0.319552,-0.933720,1.456300,-2.093455,-0.201425,0.800000,0.743650,-1.000000,-0.244388,0.802239,0.718584,-1.000000
5.670000,0.264715,-0.925226,1.552116,-2.197700,0.314068,-0.932870,1.465878,-2.103883,-0.196139,0.800000,0.746362,-1.000000,-0.239562,0.802263,0.721438,-1.000000
5.680000,0.258461,-0.923333,1.559852,-2.207329,0.308507,-0.931916,1.475273,-2.114230,-0.190813,0.800000,0.749035,-1.000000,-0.234683,0.802286,0.724274,-1.000000
5.690000,0.252141,-0.921366,1.567353,-2.216796,0.302871,-0.930861,1.484478,-2.124490,-0.185446,0.800000,0.751667,-1.000000,-0.229755,0.802307,0.727090,-1.000000
5.700000,0.245757,-0.919332,1.574617,-2.226094,0.297159,-0.929709,1.493490,-2.134653,-0.180042,0.800000,0.754256,-1.000000,-0.224777,0.802326,0.729882,-1.000000
5.710000,0.239308,-0.917237,1.581643,-2.235215,0.291374,-0.928461,1.502303,-2.144711,-0.174600,0.800000,0.756800,-1.000000,-0.219751,0.802343,0.732649,-1.000000
5.720000,0.232797,-0.915088,1.588430,-2.244151,0.285516,-0.927124,1.510914,-2.154657,-0.169122,0.800000,0.759296,-1.000000,-0.214678,0.802359,0.735388,-1.000000
5.730000,0.226226,-0.912893,1.594977,-2.252892,0.279587,-0.925701,1.519317,-2.164484,-0.163610,0.800000,0.761741,-1.000000,-0.209559,0.802372,0.738096,-1.000000
5.740000,0.219595,-0.910658,1.601282,-2.261432,0.273588,-0.924197,1.527511,-2.174182,-0.158063,0.800000,0.764133,-1.000000,-0.204396,0.802384,0.740771,-1.000000
5.750000,0.212907,-0.908391,1.607345,-2.269762,0.267520,-0.922616,1.535492,-2.183742,-0.152485,0.800000,0.766470,-1.000000,-0.199190,0.802394,0.743412,-1.000000
5.760000,0.206163,-0.906101,1.613166,-2.277873,0.261384,-0.920965,1.543257,-2.193158,-0.146875,0.800000,0.768750,-1.000000,-0.193943,0.802402,0.746014,-1.000000
5.770000,0.199365,-0.903796,1.618746,-2.285758,0.255182,-0.919248,1.550804,-2.202420,-0.141235,0.800000,0.770970,-1.000000,-0.188655,0.802409,0.748577,-1.000000
5.780000,0.192515,-0.901483,1.624084,-2.293408,0.248916,-0.917471,1.558130,-2.211521,-0.135567,0.800000,0.773127,-1.000000,-0.183327,0.802414,0.751097,-1.000000
5.790000,0.185614,-0.899172,1.629180,-2.300815,0.242585,-0.915643,1.565235,-2.220448,-0.129870,0.800000,0.775219,-1.000000,-0.177962,0.802417,0.753572,-1.000000
5.800000,0.178664,-0.896871,1.634037,-2.307972,0.236193,-0.913765,1.572113,-2.229204,-0.124148,0.800000,0.777244,-1.000000,-0.172560,0.802419,0.756000,-1.000000
5.810000,0.171667,-0.894587,1.638652,-2.314871,0.229741,-0.911848,1.578764,-2.237773,-0.118400,0.800000,0.779200,-1.000000,-0.167122,0.802419,0.758379,-1.000000
5.820000,0.164624,-0.892331,1.643029,-2.321503,0.223229,-0.909896,1.585189,-2.246149,-0.112628,0.800000,0.781084,-1.000000,-0.161650,0.802418,0.760706,-1.000000
5.830000,0.157539,-0.890112,1.647168,-2.327862,0.216660,-0.907918,1.591384,-2.254322,-0.106834,0.800000,0.782893,-1.000000,-0.156145,0.802415,0.762978,-1.000000
5.840000,0.150413,-0.887937,1.651070,-2.333938,0.210035,-0.905919,1.597351,-2.262286,-0.101017,0.800000,0.784625,-1.000000,-0.150608,0.802410,0.765194,-1.000000
5.850000,0.143247,-0.885817,1.654737,-2.339726,0.203356,-0.903909,1.603088,-2.270032,-0.095181,0.800000,0.786278,-1.000000,-0.145041,0.802405,0.767352,-1.000000
5.860000,0.136044,-0.883759,1.658171,-2.345216,0.196625,-0.901894,1.608594,-2.277552,-0.089325,0.800000,0.787850,-1.000000,-0.139444,0.802398,0.769447,-1.000000
5.870000,0.128806,-0.881774,1.661372,-2.350402,0.189843,-0.899883,1.613872,-2.284835,-0.083451,0.800000,0.789338,-1.000000,-0.133819,0.802391,0.771480,-1.000000
5.880000,0.121535,-0.879870,1.664343,-2.355276,0.183012,-0.897883,1.618919,-2.291877,-0.077561,0.800000,0.790739,-1.000000,-0.128168,0.802382,0.773446,-1.000000
5.890000,0.114233,-0.878056,1.667085,-2.359832,0.176134,-0.895900,1.623734,-2.298675,-0.071654,0.800000,0.792051,-1.000000,-0.122491,0.802371,0.775344,-1.000000
5.900000,0.106902,-0.876341,1.669600,-2.364062,0.169211,-0.893944,1.628318,-2.305217,-0.065734,0.800000,0.793272,-1.000000,-0.116789,0.802360,0.777172,-1.000000
5.910000,0.099544,-0.874732,1.671889,-2.367959,0.162244,-0.892023,1.632673,-2.311493,-0.059800,0.800000,0.794400,-1.000000,-0.111065,0.802348,0.778927,-1.000000
5.920000,0.092162,-0.873240,1.673954,-2.371516,0.155236,-0.890145,1.636799,-2.317498,-0.053854,0.800000,0.795432,-1.000000,-0.105318,0.802334,0.780607,-1.000000
5.930000,0.084759,-0.871872,1.675796,-2.374726,0.148188,-0.888318,1.640697,-2.323223,-0.047898,0.800000,0.796365,-1.000000,-0.099551,0.802321,0.782210,-1.000000
5.940000,0.077335,-0.870637,1.677418,-2.377583,0.141103,-0.886550,1.644367,-2.328661,-0.041931,0.800000,0.797197,-1.000000,-0.093764,0.802306,0.783733,-1.000000
5.950000,0.069893,-0.869543,1.678821,-2.380080,0.133982,-0.884849,1.647811,-2.333805,-0.035957,0.800000,0.797926,-1.000000,-0.087960,0.802291,0.785174,-1.000000
5.960000,0.062436,-0.868598,1.680006,-2.382210,0.126827,-0.883224,1.651028,-2.338647,-0.029975,0.800000,0.798550,-1.000000,-0.082138,0.802275,0.786531,-1.000000
5.970000,0.054966,-0.867808,1.680974,-2.383967,0.119641,-0.881684,1.654023,-2.343177,-0.023987,0.800000,0.799066,-1.000000,-0.076300,0.802260,0.787801,-1.000000
5.980000,0.047486,-0.867183,1.681726,-2.385344,0.112426,-0.880235,1.656793,-2.347391,-0.017995,0.800000,0.799471,-1.000000,-0.070448,0.802244,0.788982,-1.000000
5.990000,0.039997,-0.866728,1.682263,-2.386336,0.105183,-0.878885,1.659340,-2.351284,-0.011998,0.800000,0.799763,-1.000000,-0.064582,0.802228,0.790073,-1.000000
6.000000,0.032502,-0.866451,1.682585,-2.386935,0.097915,-0.877643,1.661665,-2.354847,-0.006000,0.800000,0.799940,-1.000000,-0.058704,0.802212,0.791070,-1.000000
6.010000,0.025003,-0.866357,1.682693,-2.387136,0.090624,-0.876515,1.663768,-2.358074,-0.000000,0.800000,0.800000,-1.000000,-0.052815,0.802195,0.791971,-1.000000
6.020000,0.017502,-0.866451,1.682586,-2.386935,0.083311,-0.875510,1.665649,-2.360958,0.006000,0.800000,0.799940,-1.000000,-0.046916,0.802179,0.792774,-1.000000
6.030000,0.010003,-0.866729,1.682265,-2.386335,0.075981,-0.874632,1.667311,-2.363494,0.011998,0.800000,0.799763,-1.000000,-0.041009,0.802163,0.793478,-1.000000
6.040000,0.002507,-0.867184,1.681728,-2.385343,0.068633,-0.873889,1.668753,-2.365677,0.017995,0.800000,0.799471,-1.000000,-0.035093,0.802148,0.794081,-1.000000
6.050000,-0.004984,-0.867810,1.680977,-2.383965,0.061272,-0.873282,1.669975,-2.367504,0.023987,0.800000,0.799066,-1.000000,-0.029172,0.802133,0.794582,-1.000000
6.060000,-0.012466,-0.868600,1.680010,-2.382208,0.053898,-0.872814,1.670979,-2.368973,0.029975,0.800000,0.798550,-1.000000,-0.023245,0.802119,0.794981,-1.000000
6.070000,-0.019938,-0.869545,1.678825,-2.380078,0.046514,-0.872488,1.671763,-2.370081,0.035957,0.800000,0.797926,-1.000000,-0.017315,0.802105,0.795276,-1.000000
6.080000,-0.027399,-0.870649,1.677443,-2.377593,0.039123,-0.872304,1.672329,-2.370835,0.041931,0.800000,0.797197,-1.000000,-0.011381,0.802092,0.795468,-1.000000
6.090000,-0.034843,-0.871884,1.675821,-2.374737,0.031726,-0.872262,1.672676,-2.371227,0.047898,0.800000,0.796365,-1.000000,-0.005445,0.802079,0.795558,-1.000000
6.100000,-0.042271,-0.873251,1.673977,-2.371527,0.024327,-0.872361,1.672804,-2.371260,0.053854,0.800000,0.795432,-1.000000,0.000491,0.802068,0.795545,-1.000000
6.110000,-0.049679,-0.874743,1.671912,-2.367970,0.016926,-0.872599,1.672713,-2.370933,0.059800,0.800000,0.794400,-1.000000,0.006426,0.802058,0.795430,-1.000000
6.120000,-0.057065,-0.876351,1.669622,-2.364074,0.009527,-0.872974,1.672401,-2.370249,0.065734,0.800000,0.793272,-1.000000,0.012360,0.802049,0.795214,-1.000000
6.130000,-0.064427,-0.878066,1.667107,-2.359844,0.002132,-0.873484,1.671870,-2.369211,0.071654,0.800000,0.792051,-1.000000,0.018290,0.802042,0.794898,-1.000000
6.140000,-0.071763,-0.879880,1.664366,-2.355289,-0.005258,-0.874124,1.671119,-2.367817,0.077561,0.800000,0.790739,-1.000000,0.024217,0.802037,0.794483,-1.000000
6.150000,-0.079070,-0.881785,1.661396,-2.350414,-0.012639,-0.874891,1.670147,-2.366075,0.083451,0.800000,0.789338,-1.000000,0.030139,0.802033,0.793971,-1.000000
6.160000,-0.086347,-0.883770,1.658196,-2.345228,-0.020010,-0.875780,1.668952,-2.363989,0.089325,0.800000,0.787850,-1.000000,0.036055,0.802031,0.793362,-1.000000
6.170000,-0.093592,-0.885828,1.654764,-2.339737,-0.027368,-0.876786,1.667533,-2.361562,0.095181,0.800000,0.786278,-1.000000,0.041963,0.802030,0.792658,-1.000000
6.180000,-0.100801,-0.887949,1.651098,-2.333950,-0.034711,-0.877903,1.665890,-2.358799,0.101017,0.800000,0.784625,-1.000000,0.047863,0.802031,0.791860,-1.000000
6.190000,-0.107973,-0.890124,1.647197,-2.327873,-0.042038,-0.879126,1.664020,-2.355704,0.106834,0.800000,0.782893,-1.000000,0.053753,0.802033,0.790971,-1.000000
6.200000,-0.115108,-0.892335,1.643036,-2.321499,-0.049345,-0.880448,1.661922,-2.352282,0.112628,0.800000,0.781084,-1.000000,0.059633,0.802037,0.789991,-1.000000
